Buckswood_AutoGrade_Assistant/output/Buckswood_AutoGrade_buckswood_davinci_giveaway_ludwig_thumbnail_photoreal-ai_17.cube
TITLE "Buckswood AutoGrade 17"
LUT_3D_SIZE 17
DOMAIN_MIN 0.0 0.0 0.0
DOMAIN_MAX 1.0 1.0 1.0
0.02397826 0.02407502 0.02422016
0.07087428 0.02375561 0.02389221
0.11786742 0.02343522 0.02356352
0.16495768 0.02311383 0.02323410
0.21214506 0.02279145 0.02290395
0.25919013 0.02255370 0.02265914
0.30334289 0.02338383 0.02348783
0.34652026 0.02459608 0.02470027
0.38871702 0.02619214 0.02629795
0.42992795 0.02817372 0.02828234
0.47014781 0.03054253 0.03065494
0.50937140 0.03330027 0.03341722
0.54759348 0.03644865 0.03657067
0.58480884 0.03998937 0.04011677
0.62608110 0.04211376 0.04224040
0.66970694 0.04343069 0.04355326
0.71341524 0.04475142 0.04486954
0.02313641 0.07184124 0.02334102
0.07016117 0.07156610 0.02301099
0.11728306 0.07128998 0.02268022
0.16450206 0.07101286 0.02234872
0.21181819 0.07073475 0.02201649
0.25923143 0.07045566 0.02168353
0.30452638 0.07091739 0.02271974
0.34846753 0.07188567 0.02439885
0.39142552 0.07323841 0.02646572
0.43339513 0.07497731 0.02892184
0.47437112 0.07710410 0.03176869
0.51434829 0.07962047 0.03500775
0.55332141 0.08252812 0.03864051
0.59128526 0.08582876 0.04266844
0.63111053 0.08852241 0.04577568
0.67485245 0.08988698 0.04709765
0.71867683 0.09125535 0.04842305
0.02228554 0.11985241 0.02245599
0.06943906 0.11962155 0.02212387
0.11668969 0.11938970 0.02179102
0.16403744 0.11915686 0.02145744
0.21148231 0.11892302 0.02112313
0.25902429 0.11868820 0.02078809
0.30544038 0.11882122 0.02167318
0.35015058 0.11954336 0.02382183
0.39387507 0.12065062 0.02636077
0.43660863 0.12214469 0.02929148
0.47834603 0.12402729 0.03261546
0.51908206 0.12630012 0.03633417
0.55881148 0.12896488 0.04044910
0.59752909 0.13202329 0.04496174
0.63616860 0.13515961 0.04933519
0.68002659 0.13657182 0.05066627
0.72396705 0.13798783 0.05200077
0.02142567 0.16810855 0.02156505
0.06870793 0.16792196 0.02123085
0.11608731 0.16773438 0.02089592
0.16356381 0.16754581 0.02056026
0.21113742 0.16735625 0.02022387
0.25880815 0.16716570 0.01988675
0.30608132 0.16709688 0.02034530
0.35156585 0.16757072 0.02296635
0.39606211 0.16843032 0.02598023
0.43956490 0.16967740 0.02938842
0.48206898 0.17131365 0.03319239
0.52356913 0.17334078 0.03739363
0.56406014 0.17576049 0.04199361
0.60353677 0.17857450 0.04699384
0.64199381 0.18178450 0.05239577
0.68522937 0.18348520 0.05425911
0.72928591 0.18494885 0.05560272
0.02182926 0.21600364 0.02194937
0.06802583 0.21643727 0.02041836
0.11547593 0.21632403 0.01999493
0.16308117 0.21617973 0.01965719
0.21078353 0.21603444 0.01931871
0.25858300 0.21588817 0.01897951
0.30644566 0.21574591 0.01873324
0.35270978 0.21596929 0.02182958
0.39798309 0.21657908 0.02532127
0.44226037 0.21757699 0.02920980
0.48553640 0.21896473 0.03349664
0.52780595 0.22074400 0.03818328
0.56906380 0.22291650 0.04327119
0.60930474 0.22548394 0.04876187
0.64852353 0.22844803 0.05465679
0.69046079 0.23062713 0.05787616
0.73463341 0.23213842 0.05922889
0.02482693 0.26290486 0.02494402
0.07010968 0.26379071 0.02337613
0.11611084 0.26445402 0.02157913
0.16283345 0.26489380 0.01955218
0.21042062 0.26495760 0.01840766
0.25834885 0.26485559 0.01806637
0.30637419 0.26475260 0.01772436
0.35357881 0.26474062 0.02040866
0.39963443 0.26509844 0.02438104
0.44469148 0.26584503 0.02875278
0.48874473 0.26698209 0.03352536
0.53178895 0.26851133 0.03870027
0.57381893 0.27043446 0.04427898
0.61482944 0.27275317 0.05026299
0.65481526 0.27546919 0.05665376
0.69572085 0.27799760 0.06151744
0.74000954 0.27955653 0.06287928
0.02927568 0.30935753 0.02939330
0.07363784 0.31069784 0.02779012
0.11871776 0.31181594 0.02595697
0.16451848 0.31271083 0.02389298
0.21104306 0.31338151 0.02159730
0.25829453 0.31382698 0.01906905
0.30623361 0.31394950 0.01760405
0.35398293 0.31385174 0.01992457
0.40101259 0.31398995 0.02315668
0.44685468 0.31448305 0.02801451
0.49169042 0.31536728 0.03327570
0.53551458 0.31664433 0.03894176
0.57832196 0.31831592 0.04501414
0.62010731 0.32038375 0.05149435
0.66086543 0.32284952 0.05838385
0.70100954 0.32559662 0.06518295
0.74512476 0.32707562 0.06651966
0.03519407 0.35535354 0.03531207
0.07862887 0.35715057 0.03367518
0.12278077 0.35872570 0.03180746
0.16765282 0.36007793 0.02970803
0.21324808 0.36120628 0.02737604
0.25956960 0.36210975 0.02481061
0.30662041 0.36278734 0.02201088
0.35434560 0.36310562 0.02074921
0.40183824 0.36318499 0.02367217
0.44874639 0.36349263 0.02699213
0.49436989 0.36412185 0.03274482
0.53897928 0.36514455 0.03890489
0.58256932 0.36656244 0.04547382
0.62508368 0.36834805 0.05244749
0.66595464 0.37020196 0.05975991
0.70572066 0.37244955 0.06746602
0.74857749 0.37395435 0.06997240
0.04260065 0.40088481 0.04271517
0.08510131 0.40314079 0.04104617
0.12831842 0.40517520 0.03914546
0.17225503 0.40698703 0.03701218
0.21691420 0.40857530 0.03464546
0.26229898 0.40993900 0.03204444
0.30841241 0.41107714 0.02920825
0.35525754 0.41198872 0.02613602
0.40276124 0.41249885 0.02515377
0.44999154 0.41275665 0.02868621
0.49666936 0.41324393 0.03245750
0.54175820 0.41370894 0.03854758
0.58551435 0.41447213 0.04554908
0.62816556 0.41562901 0.05294427
0.66971182 0.41717959 0.06073315
0.71015315 0.41912385 0.06891572
0.75203023 0.42083308 0.07342513
0.05151399 0.44594324 0.05161744
0.09307373 0.44866043 0.04991792
0.13534927 0.45115636 0.04798581
0.17834367 0.45343004 0.04582027
0.22205998 0.45548046 0.04342042
0.26650124 0.45730664 0.04078539
0.31167050 0.45890758 0.03791432
0.35757082 0.46028228 0.03480635
0.40401726 0.46123013 0.03144155
0.45081031 0.46148732 0.03077488
0.49720040 0.46148419 0.03486966
0.54294530 0.46171094 0.03919433
0.58764030 0.46218969 0.04528880
0.63096682 0.46304324 0.05316045
0.67318840 0.46429049 0.06142578
0.71430504 0.46593142 0.07008481
0.75548296 0.46771181 0.07687787
0.05931049 0.49177636 0.05938752
0.10256469 0.49370138 0.06030528
0.14389189 0.49666108 0.05834337
0.18593730 0.49939885 0.05614715
0.22870396 0.50191368 0.05371575
0.27215459 0.50413814 0.05103903
0.31603612 0.50572461 0.04807226
0.36056282 0.50708120 0.04487561
0.40573471 0.50820791 0.04144908
0.45155178 0.50910475 0.03779267
0.49789457 0.50949911 0.03755237
0.54380157 0.50963148 0.04223798
0.58906339 0.50999373 0.04715348
0.63348747 0.51059074 0.05309601
0.67638436 0.51153465 0.06183780
0.71817631 0.51287225 0.07097329
0.75893570 0.51459054 0.08033060
0.06300122 0.53980349 0.06303747
0.10674938 0.54159136 0.06440257
0.15058001 0.54338303 0.06577110
0.19430995 0.54475742 0.06707149
0.23638899 0.54692972 0.06539170
0.27855259 0.54916491 0.06261832
0.32136137 0.55117022 0.05961507
0.36481533 0.55294565 0.05638193
0.40891448 0.55449121 0.05291892
0.45365880 0.55580688 0.04922603
0.49904831 0.55689268 0.04530326
0.54493845 0.55741875 0.04556225
0.59036237 0.55768662 0.05083869
0.63514110 0.55818438 0.05634501
0.67927464 0.55891201 0.06208121
0.72176698 0.55994636 0.07158116
0.76312930 0.56137432 0.08158679
0.06666765 0.58777957 0.06666765
0.11036599 0.58906510 0.06795317
0.15406434 0.59035062 0.06923870
0.19776268 0.59163615 0.07052423
0.24146103 0.59292168 0.07180975
0.28515937 0.59420720 0.07309528
0.32814894 0.59592134 0.07262019
0.37053016 0.59811562 0.06935057
0.41355656 0.60008001 0.06585107
0.45722814 0.60181452 0.06212170
0.50154490 0.60331916 0.05816244
0.54650685 0.60459392 0.05397331
0.59194195 0.60524625 0.05480451
0.63688278 0.60564963 0.06067178
0.68117842 0.60628288 0.06676893
0.72482889 0.60714602 0.07309595
0.76711466 0.60827837 0.08239050
0.07012038 0.63465830 0.07012038
0.11381873 0.63594383 0.07140591
0.15751707 0.63722935 0.07269143
0.20121541 0.63851488 0.07397696
0.24491376 0.63980041 0.07526249
0.28861210 0.64108593 0.07654801
0.33231045 0.64237146 0.07783354
0.37600879 0.64365698 0.07911907
0.41966095 0.64497432 0.08024554
0.46225979 0.64712767 0.07647968
0.50550381 0.64905115 0.07248394
0.54939301 0.65074475 0.06825833
0.59392740 0.65220847 0.06380283
0.63890507 0.65298161 0.06527917
0.68336281 0.65352049 0.07173726
0.72717537 0.65428925 0.07842523
0.77034274 0.65528789 0.08534308
0.07357311 0.68153703 0.07357311
0.11727146 0.68282255 0.07485864
0.16096980 0.68410808 0.07614417
0.20466815 0.68539361 0.07742969
0.24836649 0.68667913 0.07871522
0.29206484 0.68796466 0.08000075
0.33576318 0.68925019 0.08128627
0.37946153 0.69053571 0.08257180
0.42315987 0.69182124 0.08385733
0.46685822 0.69310677 0.08514285
0.51055656 0.69439229 0.08642838
0.55374149 0.69620108 0.08400565
0.59720313 0.69808364 0.07951367
0.64130996 0.69973632 0.07479182
0.68582781 0.70062483 0.07698620
0.72980247 0.70129921 0.08403513
0.77313194 0.70220347 0.09131393
0.07702585 0.72841576 0.07702585
0.12072419 0.72970128 0.07831138
0.16442254 0.73098681 0.07959690
0.20812088 0.73227234 0.08088243
0.25181923 0.73355786 0.08216795
0.29551757 0.73484339 0.08345348
0.33921592 0.73612891 0.08473901
0.38291426 0.73741444 0.08602453
0.42661261 0.73869997 0.08731006
0.47031095 0.73998549 0.08859559
0.51400930 0.74127102 0.08988111
0.55770764 0.74255655 0.09116664
0.60140599 0.74384207 0.09245217
0.64497526 0.74533585 0.09192849
0.68865452 0.74717749 0.08694027
0.73271017 0.74817590 0.08992563
0.77620174 0.74898579 0.09756538
0.08047858 0.77529448 0.08047858
0.12417693 0.77658001 0.08176411
0.16787527 0.77786554 0.08304964
0.21157362 0.77915106 0.08433516
0.25527196 0.78043659 0.08562069
0.29897031 0.78172212 0.08690622
0.34266865 0.78300764 0.08819174
0.38636700 0.78429317 0.08947727
0.43006534 0.78557870 0.09076279
0.47376369 0.78686422 0.09204832
0.51746203 0.78814975 0.09333385
0.56116038 0.78943527 0.09461937
0.60485872 0.79072080 0.09590490
0.64855707 0.79200633 0.09719043
0.69225541 0.79329185 0.09847595
0.73595376 0.79457738 0.09976148
0.77965210 0.79586291 0.10104701
0.02390344 0.02399881 0.07370996
0.07081102 0.02367914 0.07342385
0.11781572 0.02335848 0.07313701
0.16491754 0.02303682 0.07284944
0.21211647 0.02271418 0.07256114
0.25941252 0.02239055 0.07227210
0.30588475 0.02241343 0.07210378
0.34954510 0.02351915 0.07247435
0.39222595 0.02500850 0.07322799
0.43392208 0.02688320 0.07436617
0.47462828 0.02914496 0.07589039
0.51433930 0.03179546 0.07780211
0.55304995 0.03483643 0.08010283
0.59075498 0.03826956 0.08279403
0.62744918 0.04209656 0.08587718
0.67016852 0.04374956 0.08746457
0.71388725 0.04507119 0.08881521
0.02306074 0.07177565 0.07294319
0.07009706 0.07150025 0.07265500
0.11723051 0.07122386 0.07236608
0.16446107 0.07094647 0.07207642
0.21178875 0.07066810 0.07178604
0.25921355 0.07038874 0.07149492
0.30666081 0.07013512 0.07122932
0.35108658 0.07099661 0.07206335
0.39453029 0.07224239 0.07328297
0.43698675 0.07387416 0.07488967
0.47845071 0.07589363 0.07688493
0.51891696 0.07830250 0.07927022
0.55838028 0.08110249 0.08204703
0.59683543 0.08429529 0.08521685
0.63427721 0.08788260 0.08878115
0.67531657 0.09021730 0.09110123
0.71915137 0.09158657 0.09246098
0.02220902 0.11979744 0.07217051
0.06937409 0.11956631 0.07188024
0.11663628 0.11933420 0.07158924
0.16399559 0.11910109 0.07129751
0.21145202 0.11886699 0.07100504
0.25900556 0.11863190 0.07071184
0.30665622 0.11839582 0.07041791
0.35236005 0.11884368 0.07137517
0.39657191 0.11984372 0.07306365
0.43979396 0.12123040 0.07514173
0.48202096 0.12300542 0.07761090
0.52324771 0.12517050 0.08047263
0.56346897 0.12772734 0.08372841
0.60267952 0.13067765 0.08737973
0.64087415 0.13402312 0.09142806
0.68049325 0.13691358 0.09476211
0.72444413 0.13833049 0.09613097
0.02134830 0.16806420 0.07139194
0.06864212 0.16787735 0.07109959
0.11603305 0.16768950 0.07080650
0.16352111 0.16750067 0.07051269
0.21110628 0.16731084 0.07021814
0.25878857 0.16712003 0.06992286
0.30656797 0.16692822 0.06962685
0.35336197 0.16706192 0.07040695
0.39834725 0.16781405 0.07256716
0.44234015 0.16895347 0.07511950
0.48533547 0.17048189 0.07806545
0.52732798 0.17240101 0.08140650
0.56831246 0.17471255 0.08514412
0.60828369 0.17741819 0.08927981
0.64723643 0.18051966 0.09381504
0.68569858 0.18383841 0.09844721
0.72976553 0.18530296 0.09982518
0.02047857 0.21657592 0.07060747
0.06790114 0.21643334 0.07031303
0.11542082 0.21628977 0.07001787
0.16303762 0.21614521 0.06972197
0.21075153 0.21599965 0.06942535
0.25856257 0.21585311 0.06912799
0.30647072 0.21570558 0.06882990
0.35408878 0.21565287 0.06915585
0.39985273 0.21615493 0.07179066
0.44462177 0.21704493 0.07482013
0.48839068 0.21832458 0.07824574
0.53115423 0.21999559 0.08206897
0.57290720 0.22205965 0.08629131
0.61364436 0.22451847 0.09091424
0.65336050 0.22737377 0.09593924
0.69205039 0.23062724 0.10136780
0.73511557 0.23250397 0.10354362
0.02275913 0.26391107 0.07204842
0.06845072 0.26461848 0.07079546
0.11486227 0.26510274 0.06931406
0.16254512 0.26503471 0.06892536
0.21038778 0.26493343 0.06862665
0.25832756 0.26483116 0.06832721
0.30636446 0.26472790 0.06802704
0.35449848 0.26462364 0.06772614
0.40108481 0.26486791 0.07073130
0.44663526 0.26550633 0.07424077
0.49118302 0.26653505 0.07814891
0.53472288 0.26795578 0.08245721
0.57724961 0.26977020 0.08716714
0.61875799 0.27198005 0.09228018
0.65924279 0.27458701 0.09779783
0.69869880 0.27759279 0.10372155
0.74049425 0.27993353 0.10728627
0.02685347 0.31063744 0.07516590
0.07162525 0.31179914 0.07387677
0.11711634 0.31273800 0.07235831
0.16332977 0.31345304 0.07060966
0.21026860 0.31394326 0.06862995
0.25808354 0.31405417 0.06752054
0.30624919 0.31399518 0.06721828
0.35451195 0.31393520 0.06691530
0.40203992 0.31395456 0.06938623
0.44837705 0.31433923 0.07337858
0.49370894 0.31511486 0.07777212
0.53803038 0.31628313 0.08256835
0.58133614 0.31784577 0.08776874
0.62362101 0.31980446 0.09337478
0.66487975 0.32216092 0.09938794
0.70510714 0.32491686 0.10580971
0.74543514 0.32738600 0.11097641
0.03241500 0.35690900 0.07974342
0.07626020 0.35852722 0.07841968
0.12082404 0.35992293 0.07686576
0.16610958 0.36109513 0.07508077
0.21211988 0.36204284 0.07306386
0.25885797 0.36276504 0.07081416
0.30632691 0.36326075 0.06833081
0.35450014 0.36344618 0.06669201
0.40252383 0.36337795 0.06903873
0.44984358 0.36354518 0.07223070
0.49596487 0.36406555 0.07711252
0.54107317 0.36497921 0.08239955
0.58516324 0.36628789 0.08809328
0.62802637 0.36787826 0.09416314
0.66938508 0.36962283 0.10056478
0.70963884 0.37176110 0.10736011
0.74888787 0.37426473 0.11442915
0.03946228 0.40271763 0.08579581
0.08237411 0.40479463 0.08443906
0.12600394 0.40664943 0.08285126
0.17035482 0.40828104 0.08103152
0.21542980 0.40968848 0.07897899
0.26123193 0.41087073 0.07669281
0.30776426 0.41182681 0.07417210
0.35502984 0.41255572 0.07141599
0.40298883 0.41294026 0.06994279
0.45075313 0.41304985 0.07289468
0.49794266 0.41338508 0.07616656
0.54329149 0.41364525 0.08186359
0.58753539 0.41429912 0.08795431
0.63067435 0.41534668 0.09443872
0.67270837 0.41678793 0.10131682
0.71363745 0.41862286 0.10858860
0.75346159 0.42085149 0.11625408
0.04801386 0.44805526 0.09333792
0.08998556 0.45059327 0.09194975
0.13267460 0.45290941 0.09032966
0.17608404 0.45500268 0.08847676
0.22021693 0.45687209 0.08639020
0.26507632 0.45851664 0.08406912
0.31066526 0.45993533 0.08151264
0.35698680 0.46112717 0.07871990
0.40375623 0.46178472 0.07563746
0.45099997 0.46192307 0.07433292
0.49791353 0.46177107 0.07781086
0.54418192 0.46184894 0.08151867
0.58922745 0.46220415 0.08747282
0.63304172 0.46294837 0.09443369
0.67575105 0.46408629 0.10178824
0.71735544 0.46561790 0.10953649
0.75785489 0.46754319 0.11767842
0.05808831 0.49291378 0.10238460
0.09911308 0.49591506 0.10096660
0.14085456 0.49869478 0.09931580
0.18331579 0.50125195 0.09743133
0.22649982 0.50358558 0.09531233
0.27030059 0.50551234 0.09292090
0.31459459 0.50691421 0.09023750
0.35953377 0.50808620 0.08732422
0.40511813 0.50902831 0.08418107
0.45134767 0.50974054 0.08080803
0.49814593 0.51002390 0.07981909
0.54457640 0.51000740 0.08388785
0.59036170 0.51022077 0.08818649
0.63512848 0.51068334 0.09414805
0.67851312 0.51151792 0.10197906
0.72079282 0.51274620 0.11020376
0.76196758 0.51436817 0.11882216
0.06333442 0.54023485 0.10744829
0.10709300 0.54202362 0.10884775
0.15055036 0.54396353 0.10981665
0.19183607 0.54647387 0.10778640
0.23376696 0.54875433 0.10552627
0.27634303 0.55080492 0.10303627
0.31956428 0.55262563 0.10031639
0.36343072 0.55421646 0.09736662
0.40794234 0.55557741 0.09418698
0.45309914 0.55670848 0.09077747
0.49890112 0.55760967 0.08713807
0.54525150 0.55803258 0.08653764
0.59119889 0.55815158 0.09119723
0.63650110 0.55850046 0.09608670
0.68099458 0.55908283 0.10188927
0.72394959 0.56000777 0.11059043
0.76579966 0.56132641 0.11968528
0.06697802 0.58808995 0.11112439
0.11067637 0.58937548 0.11240992
0.15437471 0.59066100 0.11369545
0.19807306 0.59194653 0.11498097
0.24177140 0.59323206 0.11626650
0.28384779 0.59540301 0.11461395
0.32599630 0.59764255 0.11185759
0.36878999 0.59965222 0.10887134
0.41222886 0.60143201 0.10565521
0.45631292 0.60298192 0.10220921
0.50104216 0.60430196 0.09853333
0.54641658 0.60539211 0.09462757
0.59231670 0.60594912 0.09448858
0.63778100 0.60620362 0.09973900
0.68260012 0.60668800 0.10521929
0.72677406 0.60740226 0.11092946
0.76935113 0.60841792 0.12026779
0.07043076 0.63496868 0.11457713
0.11412910 0.63625420 0.11586266
0.15782745 0.63753973 0.11714818
0.20152579 0.63882526 0.11843371
0.24522414 0.64011078 0.11971923
0.28892248 0.64139631 0.12100476
0.33262083 0.64268184 0.12229029
0.37561157 0.64439350 0.12183837
0.41797770 0.64659212 0.11858576
0.46098901 0.64856088 0.11510327
0.50464551 0.65029975 0.11139091
0.54894719 0.65180874 0.10744866
0.59389405 0.65308786 0.10327654
0.63934151 0.65377352 0.10367191
0.68432273 0.65416352 0.10951315
0.72865877 0.65478341 0.11558427
0.77234962 0.65563317 0.12188527
0.07388349 0.68184741 0.11802986
0.11758184 0.68313293 0.11931539
0.16128018 0.68441846 0.12060092
0.20497853 0.68570399 0.12188644
0.24867687 0.68698951 0.12317197
0.29237522 0.68827504 0.12445750
0.33607356 0.68956056 0.12574302
0.37977191 0.69084609 0.12702855
0.42347025 0.69213162 0.12831407
0.46712742 0.69344534 0.12945965
0.50971117 0.69560305 0.12571080
0.55294011 0.69753088 0.12173207
0.59681422 0.69922884 0.11752346
0.64133352 0.70069692 0.11308498
0.68632595 0.70150578 0.11408762
0.73082408 0.70203128 0.12051969
0.77467703 0.70278667 0.12718164
0.07733623 0.72872613 0.12148260
0.12103457 0.73001166 0.12276812
0.16473292 0.73129719 0.12405365
0.20843126 0.73258271 0.12533918
0.25212961 0.73386824 0.12662470
0.29582795 0.73515377 0.12791023
0.33952630 0.73643929 0.12919576
0.38322464 0.73772482 0.13048128
0.42692299 0.73901035 0.13176681
0.47062133 0.74029587 0.13305234
0.51431968 0.74158140 0.13433786
0.55801802 0.74286692 0.13562339
0.60119671 0.74467533 0.13323270
0.64464327 0.74656225 0.12875773
0.68873500 0.74821929 0.12405288
0.73327000 0.74914589 0.12573572
0.77728505 0.74980690 0.13275862
0.08078896 0.77560486 0.12493533
0.12448731 0.77689039 0.12622086
0.16818565 0.77817592 0.12750639
0.21188400 0.77946144 0.12879191
0.25558234 0.78074697 0.13007744
0.29928069 0.78203249 0.13136296
0.34297903 0.78331802 0.13264849
0.38667738 0.78460355 0.13393402
0.43037572 0.78588907 0.13521954
0.47407407 0.78717460 0.13650507
0.51777241 0.78846013 0.13779060
0.56147076 0.78974565 0.13907612
0.60516910 0.79103118 0.14036165
0.64886744 0.79231671 0.14164718
0.69243432 0.79380896 0.14115146
0.73609850 0.79565496 0.13618025
0.78017368 0.79669386 0.13861621
0.02382854 0.02392253 0.12322002
0.07074768 0.02360259 0.12297575
0.11776394 0.02328167 0.12273076
0.16487731 0.02295975 0.12248503
0.21208780 0.02263684 0.12223857
0.25939541 0.02231294 0.12199138
0.30622016 0.02221871 0.12168412
0.35150283 0.02275878 0.12139771
0.39566461 0.02375082 0.12134283
0.43784620 0.02551846 0.12163577
0.47903897 0.02767296 0.12231256
0.51923769 0.03021605 0.12337468
0.55843714 0.03314942 0.12482363
0.59663210 0.03647477 0.12666089
0.63381735 0.04019382 0.12888792
0.67063032 0.04406865 0.13139227
0.71435948 0.04539116 0.13277727
0.02298499 0.07170999 0.12256560
0.07003287 0.07143432 0.12231926
0.11717787 0.07115766 0.12207218
0.16441999 0.07088002 0.12182437
0.21175923 0.07060138 0.12157583
0.25919558 0.07032176 0.12132656
0.30672906 0.07004114 0.12107656
0.35363445 0.07003353 0.12091563
0.39756414 0.07117216 0.12128896
0.44050769 0.07269661 0.12204719
0.48245987 0.07460858 0.12319181
0.52341545 0.07690977 0.12472429
0.56336922 0.07960190 0.12664613
0.60231594 0.08268667 0.12895879
0.64025041 0.08616578 0.13166377
0.67716738 0.09004093 0.13476255
0.71962614 0.09191799 0.13651531
0.02213242 0.11974240 0.12190529
0.06930905 0.11951101 0.12165686
0.11658280 0.11927863 0.12140771
0.16395366 0.11904525 0.12115782
0.21142165 0.11881089 0.12090720
0.25898675 0.11857554 0.12065584
0.30664897 0.11833919 0.12040376
0.35440830 0.11810186 0.12015094
0.39919718 0.11896244 0.12095919
0.44290796 0.12024154 0.12218559
0.48562482 0.12190881 0.12380091
0.52734253 0.12396596 0.12580663
0.56805588 0.12641468 0.12820422
0.60775964 0.12925670 0.13099517
0.64644859 0.13249370 0.13418096
0.68411750 0.13612741 0.13776308
0.72492144 0.13867336 0.14027756
0.02127085 0.16801978 0.12123908
0.06857622 0.16783266 0.12098857
0.11597872 0.16764455 0.12073733
0.16347833 0.16745545 0.12048536
0.21107506 0.16726536 0.12023266
0.25876890 0.16707428 0.11997923
0.30655987 0.16688221 0.11972506
0.35444795 0.16668915 0.11947017
0.40056015 0.16712323 0.12035067
0.44504343 0.16815481 0.12204812
0.48853024 0.16957522 0.12413701
0.53101536 0.17138615 0.12661883
0.57249357 0.17358931 0.12949505
0.61295963 0.17618641 0.13276716
0.65240834 0.17917915 0.13643664
0.69083447 0.18256924 0.14050498
0.73024539 0.18565727 0.14406404
0.02040027 0.21654212 0.12056696
0.06783439 0.21639927 0.12031438
0.11536563 0.21625544 0.12006106
0.16299398 0.21611061 0.11980701
0.21071946 0.21596479 0.11955223
0.25854205 0.21581798 0.11929671
0.30646176 0.21567018 0.11904047
0.35447859 0.21552139 0.11878349
0.40164949 0.21565607 0.11946056
0.44691055 0.21643798 0.12163193
0.49117258 0.21760936 0.12419727
0.53443038 0.21917191 0.12715806
0.57667871 0.22112735 0.13051579
0.61791236 0.22347737 0.13427193
0.65812610 0.22622368 0.13842797
0.69731471 0.22936799 0.14298539
0.73559796 0.23286974 0.14787474
0.02061608 0.26484416 0.12034580
0.06708355 0.26521085 0.11963429
0.11474353 0.26511129 0.11937889
0.16250063 0.26501073 0.11912276
0.21035485 0.26490918 0.11886589
0.25830619 0.26480665 0.11860830
0.30635465 0.26470312 0.11834997
0.35450022 0.26459861 0.11809091
0.40246166 0.26456251 0.11828600
0.44850575 0.26509258 0.12093416
0.49354829 0.26601277 0.12397882
0.53758403 0.26732479 0.12742146
0.58060776 0.26903033 0.13126356
0.62261426 0.27113111 0.13550661
0.66359830 0.27362884 0.14015209
0.70355466 0.27652520 0.14520147
0.74247812 0.27982192 0.15065624
0.02435542 0.31184415 0.12213467
0.06953702 0.31282698 0.12116126
0.11543946 0.31358637 0.11995918
0.16206580 0.31412133 0.11852755
0.20998124 0.31409854 0.11817366
0.25806133 0.31404028 0.11791399
0.30623853 0.31398102 0.11765358
0.35451285 0.31392078 0.11739244
0.40288429 0.31385955 0.11713057
0.44982548 0.31412019 0.11995197
0.49565379 0.31478703 0.12347883
0.54047275 0.31584634 0.12740619
0.58427715 0.31729983 0.13173554
0.62706177 0.31914921 0.13646837
0.66882139 0.32139617 0.14160615
0.70955078 0.32404244 0.14715036
0.74859724 0.32680691 0.15296958
0.02955951 0.35839113 0.12537410
0.07381529 0.35983031 0.12436520
0.11879127 0.36104636 0.12312676
0.16449050 0.36203829 0.12165790
0.21091602 0.36280511 0.11995776
0.25807088 0.36334581 0.11802547
0.30611340 0.36350389 0.11695129
0.35451647 0.36348792 0.11668807
0.40301665 0.36347096 0.11642412
0.45086618 0.36352234 0.11868252
0.49748552 0.36393366 0.12269444
0.54309298 0.36473811 0.12710939
0.58768332 0.36593739 0.13192887
0.63089331 0.36733272 0.13708029
0.67273977 0.36896797 0.14257115
0.71348129 0.37099691 0.14845570
0.75311787 0.37341954 0.15473394
0.03624689 0.40447702 0.13007895
0.07957009 0.40637478 0.12903615
0.12361283 0.40804974 0.12776293
0.16837817 0.40950090 0.12625843
0.21386916 0.41072726 0.12452177
0.26008883 0.41172783 0.12255211
0.30704025 0.41250161 0.12034856
0.35472647 0.41304760 0.11791027
0.40313145 0.41329683 0.11609845
0.45143002 0.41325798 0.11847112
