Buckswood_AutoGrade_Assistant/output/Buckswood_AutoGrade_buckswood_davinci_giveaway_ludwig_thumbnail_photoreal-ai_17.cube
TITLE "Buckswood AutoGrade 17"
LUT_3D_SIZE 9
DOMAIN_MIN 0.0 0.0 0.0
DOMAIN_MAX 1.0 1.0 1.0
0.02397826 0.02407502 0.02422016
0.11786742 0.02343522 0.02356352
0.21214506 0.02279145 0.02290395
0.30334289 0.02338383 0.02348783
0.38871702 0.02619214 0.02629795
0.47014781 0.03054253 0.03065494
0.54759348 0.03644865 0.03657067
0.62608110 0.04211376 0.04224040
0.71341524 0.04475142 0.04486954
0.02228554 0.11985241 0.02245599
0.11668969 0.11938970 0.02179102
0.21148231 0.11892302 0.02112313
0.30544038 0.11882122 0.02167318
0.39387507 0.12065062 0.02636077
0.47834603 0.12402729 0.03261546
0.55881148 0.12896488 0.04044910
0.63616860 0.13515961 0.04933519
0.72396705 0.13798783 0.05200077
0.02182926 0.21600364 0.02194937
0.11547593 0.21632403 0.01999493
0.21078353 0.21603444 0.01931871
0.30644566 0.21574591 0.01873324
0.39798309 0.21657908 0.02532127
0.48553640 0.21896473 0.03349664
0.56906380 0.22291650 0.04327119
0.64852353 0.22844803 0.05465679
0.73463341 0.23213842 0.05922889
0.02927568 0.30935753 0.02939330
0.11871776 0.31181594 0.02595697
0.21104306 0.31338151 0.02159730
0.30623361 0.31394950 0.01760405
0.40101259 0.31398995 0.02315668
0.49169042 0.31536728 0.03327570
0.57832196 0.31831592 0.04501414
0.66086543 0.32284952 0.05838385
0.74512476 0.32707562 0.06651966
0.04260065 0.40088481 0.04271517
0.12831842 0.40517520 0.03914546
0.21691420 0.40857530 0.03464546
0.30841241 0.41107714 0.02920825
0.40276124 0.41249885 0.02515377
0.49666936 0.41324393 0.03245750
0.58551435 0.41447213 0.04554908
0.66971182 0.41717959 0.06073315
0.75203023 0.42083308 0.07342513
0.05931049 0.49177636 0.05938752
0.14389189 0.49666108 0.05834337
0.22870396 0.50191368 0.05371575
0.31603612 0.50572461 0.04807226
0.40573471 0.50820791 0.04144908
0.49789457 0.50949911 0.03755237
0.58906339 0.50999373 0.04715348
0.67638436 0.51153465 0.06183780
0.75893570 0.51459054 0.08033060
0.06666765 0.58777957 0.06666765
0.15406434 0.59035062 0.06923870
0.24146103 0.59292168 0.07180975
0.32814894 0.59592134 0.07262019
0.41355656 0.60008001 0.06585107
0.50154490 0.60331916 0.05816244
0.59194195 0.60524625 0.05480451
0.68117842 0.60628288 0.06676893
0.76711466 0.60827837 0.08239050
0.07357311 0.68153703 0.07357311
0.16096980 0.68410808 0.07614417
0.24836649 0.68667913 0.07871522
0.33576318 0.68925019 0.08128627
0.42315987 0.69182124 0.08385733
0.51055656 0.69439229 0.08642838
0.59720313 0.69808364 0.07951367
0.68582781 0.70062483 0.07698620
0.77313194 0.70220347 0.09131393
0.08047858 0.77529448 0.08047858
0.16787527 0.77786554 0.08304964
0.25527196 0.78043659 0.08562069
0.34266865 0.78300764 0.08819174
0.43006534 0.78557870 0.09076279
0.51746203 0.78814975 0.09333385
0.60485872 0.79072080 0.09590490
0.69225541 0.79329185 0.09847595
0.77965210 0.79586291 0.10104701
0.02382854 0.02392253 0.12322002
0.11776394 0.02328167 0.12273076
0.21208780 0.02263684 0.12223857
0.30622016 0.02221871 0.12168412
0.39566461 0.02375082 0.12134283
0.47903897 0.02767296 0.12231256
0.55843714 0.03314942 0.12482363
0.63381735 0.04019382 0.12888792
0.71435948 0.04539116 0.13277727
0.02213242 0.11974240 0.12190529
0.11658280 0.11927863 0.12140771
0.21142165 0.11881089 0.12090720
0.30664897 0.11833919 0.12040376
0.39919718 0.11896244 0.12095919
0.48562482 0.12190881 0.12380091
0.56805588 0.12641468 0.12820422
0.64644859 0.13249370 0.13418096
0.72492144 0.13867336 0.14027756
0.02040027 0.21654212 0.12056696
0.11536563 0.21625544 0.12006106
0.21071946 0.21596479 0.11955223
0.30646176 0.21567018 0.11904047
0.40164949 0.21565607 0.11946056
0.49117258 0.21760936 0.12419727
0.57667871 0.22112735 0.13051579
0.65812610 0.22622368 0.13842797
0.73559796 0.23286974 0.14787474
0.02435542 0.31184415 0.12213467
0.11543946 0.31358637 0.11995918
0.20998124 0.31409854 0.11817366
0.30623853 0.31398102 0.11765358
0.40288429 0.31385955 0.11713057
0.49565379 0.31478703 0.12347883
0.58427715 0.31729983 0.13173554
0.66882139 0.32139617 0.14160615
0.74859724 0.32680691 0.15296958
0.03624689 0.40447702 0.13007895
0.12361283 0.40804974 0.12776293
0.21386916 0.41072726 0.12452177
0.30704025 0.41250161 0.12034856
0.40313145 0.41329683 0.11609845
0.49891245 0.41335498 0.12159486
0.58948069 0.41405037 0.13156104
0.67562917 0.41632053 0.14310199
0.75735789 0.42016544 0.15621769
0.05414577 0.49523316 0.14394430
0.13773942 0.50065434 0.14150045
0.22421825 0.50518287 0.13812451
0.31307731 0.50802807 0.13360425
0.40442580 0.50977296 0.12811456
0.49831199 0.51046340 0.12343880
0.59157472 0.51036252 0.13057250
0.68056613 0.51142545 0.14332182
0.76499610 0.51405704 0.15834336
0.06728840 0.58840033 0.15558114
0.15468509 0.59097138 0.15815220
0.23929113 0.59494825 0.15701260
0.32376791 0.59928802 0.15229649
0.41082543 0.60270827 0.14666086
0.50046367 0.60520901 0.14010573
0.59260615 0.60656670 0.13552564
0.68393653 0.60700783 0.14502265
0.77151186 0.60848173 0.15934658
0.07419387 0.68215778 0.16248661
0.16159056 0.68472884 0.16505767
0.24898725 0.68729989 0.16762872
0.33638394 0.68987094 0.17019977
0.42307431 0.69286562 0.17105642
0.50842157 0.69704171 0.16435535
0.59634957 0.70029830 0.15673476
0.68673879 0.70230144 0.15254203
0.77613683 0.70328457 0.16440234
0.08109934 0.77591524 0.16939208
0.16849603 0.77848629 0.17196313
0.25589272 0.78105735 0.17453419
0.34328941 0.78362840 0.17710524
0.43068610 0.78619945 0.17967629
0.51808279 0.78877050 0.18224735
0.60547948 0.79134156 0.18481840
0.69208351 0.79504082 0.17800165
0.78070991 0.79766760 0.17448797
0.02367851 0.02376976 0.22230086
0.11766013 0.02312783 0.22197899
0.21084343 0.02305837 0.22033331
0.30143991 0.02418711 0.21816049
0.38990939 0.02621185 0.21686841
0.47622748 0.02914056 0.21646399
0.56036977 0.03298119 0.21695415
0.64231187 0.03774172 0.21834581
0.71963990 0.04435454 0.22068310
0.02197898 0.11963211 0.22143559
0.11647558 0.11916727 0.22110538
0.21136066 0.11869848 0.22077225
0.30663422 0.11822572 0.22043620
0.40173105 0.11797449 0.22002851
0.49261896 0.11949102 0.21976906
0.57701765 0.12356368 0.22074970
0.65738692 0.12920807 0.22328639
0.73368499 0.13643783 0.22739100
0.02024342 0.21647431 0.22054671
0.11525501 0.21618656 0.22020819
0.21065507 0.21589485 0.21986673
0.30644361 0.21559919 0.21952236
0.40262061 0.21529956 0.21917505
0.49651891 0.21595334 0.21971200
0.58400577 0.21903606 0.22258216
0.66744283 0.22369571 0.22702860
0.74678830 0.22994592 0.23306319
0.01913147 0.31403758 0.21966507
0.11399840 0.31418570 0.21928739
0.20991345 0.31407108 0.21893762
0.30621697 0.31395251 0.21858492
0.40290895 0.31382997 0.21822929
0.49932208 0.31390481 0.21852747
0.58993928 0.31598029 0.22331014
0.67648630 0.31963788 0.22968931
0.75789820 0.32445773 0.23738614
0.02958469 0.40777516 0.22225715
0.11860037 0.41062830 0.22120829
0.21051878 0.41258132 0.21923945
0.30595429 0.41328567 0.21762388
0.40316127 0.41334023 0.21725993
0.50038185 0.41310050 0.21675570
0.59314407 0.41332565 0.22237904
0.68124355 0.41515850 0.23027686
0.76492328 0.41856611 0.23974943
0.04602573 0.49965062 0.23069464
0.13127533 0.50435073 0.22951079
0.21939789 0.50810257 0.22737895
0.30981555 0.51002857 0.22394227
0.40281393 0.51103505 0.21958608
0.49838798 0.51108449 0.21476182
0.59364421 0.51039376 0.21980823
0.68444494 0.51101329 0.22961188
0.77082591 0.51320758 0.24099029
0.06790916 0.58902108 0.24449464
0.14941129 0.59422951 0.24302455
0.23295724 0.59875038 0.24036144
0.31908392 0.60235173 0.23677882
0.40779133 0.60503357 0.23227669
0.49907947 0.60679590 0.22685504
0.59292919 0.60754600 0.22165873
0.68635349 0.60739162 0.22868833
0.77560609 0.60838212 0.24110869
0.07481463 0.68277854 0.25140011
0.16221132 0.68534959 0.25397116
0.24960801 0.68792065 0.25654222
0.33420156 0.69189693 0.25546463
0.41861799 0.69625413 0.25081656
0.50561515 0.69969182 0.24524897
0.59519305 0.70220999 0.23876187
0.68730861 0.70363688 0.23350982
0.77880056 0.70402452 0.24290272
0.08172010 0.77653600 0.25830558
0.16911678 0.77910705 0.26087663
0.25651347 0.78167810 0.26344768
0.34391016 0.78424915 0.26601874
0.43130685 0.78682021 0.26858979
0.51800009 0.78980977 0.26949216
0.60328701 0.79400330 0.26285912
0.69115466 0.79727732 0.25530657
0.78152651 0.79935920 0.25029045
0.02365690 0.02374598 0.31939919
0.11674191 0.02365033 0.31716886
0.20789999 0.02460397 0.31317747
0.29694312 0.02645056 0.31005474
0.38384689 0.02919805 0.30780759
0.46858690 0.03285442 0.30644294
0.55113876 0.03742764 0.30596771
0.63147807 0.04292566 0.30638883
0.71625064 0.04667319 0.30878944
0.02234403 0.11943735 0.31969636
0.11636805 0.11905564 0.32088406
0.21129936 0.11858578 0.32071831
0.30545373 0.11868305 0.31919107
0.39700523 0.11998773 0.31708889
0.48639817 0.12219874 0.31587616
0.57360815 0.12532405 0.31555981
0.65861078 0.12937161 0.31614677
0.74138167 0.13434939 0.31764395
0.02225647 0.21575409 0.31841526
0.11514407 0.21611740 0.32043631
0.21059036 0.21582464 0.32026224
0.30642513 0.21552791 0.32008524
0.40264837 0.21522722 0.31990531
0.49870984 0.21514283 0.31964469
0.59063215 0.21680226 0.31947452
0.67647303 0.22086348 0.32046745
0.75781911 0.22667410 0.32302659
0.02325906 0.31251946 0.31820147
0.11388406 0.31415902 0.31996496
0.20984533 0.31404334 0.31978257
0.30619508 0.31392371 0.31959725
0.40293330 0.31380011 0.31940900
0.50006000 0.31367255 0.31921783
0.59530766 0.31435665 0.31974669
0.68385946 0.31757401 0.32264210
0.76689620 0.32180557 0.32660873
0.02538029 0.40972103 0.31907779
0.11328032 0.41291023 0.31949030
0.20906427 0.41324190 0.31927930
0.30592900 0.41329935 0.31908566
0.40318221 0.41335284 0.31888909
0.50020262 0.41292127 0.31835980
0.59650448 0.41229797 0.31800306
0.68655497 0.41369352 0.32225776
0.77218570 0.41666382 0.32808721
0.03759183 0.50377248 0.32229353
0.12449894 0.50774961 0.32238316
0.21418327 0.51053852 0.32138952
0.30625082 0.51172610 0.31908633
0.40151254 0.51164762 0.31710829
0.49820874 0.51090526 0.31636592
0.59490494 0.51016289 0.31562356
0.68802078 0.51029816 0.32070796
0.77635275 0.51205515 0.32844325
0.05850943 0.59376512 0.33065603
0.14112455 0.59846708 0.33004593
0.22632039 0.60224954 0.32851632
0.31409697 0.60511248 0.32606719
0.40445428 0.60705591 0.32269854
0.49739231 0.60807982 0.31841039
0.59291106 0.60814688 0.31362968
0.68836414 0.60743589 0.31803572
0.77939736 0.60797955 0.32767684
0.07543538 0.68339930 0.34031361
0.16283207 0.68597035 0.34288466
0.24430678 0.69118260 0.34149237
0.32779238 0.69572090 0.33889730
0.41385871 0.69933968 0.33538272
0.50250577 0.70203896 0.33094863
0.59373356 0.70381872 0.32559502
0.68753727 0.70463117 0.31988956
0.78112313 0.70442330 0.32681506
0.08234085 0.77715675 0.34721908
0.16973754 0.77972780 0.34979013
0.25713423 0.78229886 0.35236118
0.34453092 0.78486991 0.35493223
0.42911240 0.78884549 0.35391616
0.51346849 0.79322013 0.34933612
0.60040530 0.79667524 0.34383658
0.68992284 0.79921085 0.33741752
0.78200195 0.80070964 0.33150489
0.02419942 0.02428857 0.40753436
0.11562672 0.02477485 0.40639384
0.20524226 0.02644334 0.40144423
0.29273048 0.02900968 0.39735811
0.37806698 0.03248185 0.39414240
0.46122737 0.03686781 0.39180404
0.54252564 0.04202667 0.39054977
0.62969668 0.04466348 0.39371498
0.71719758 0.04731546 0.39689388
0.02442994 0.11917563 0.41111654
0.11644317 0.11909361 0.41820548
0.21046419 0.11914104 0.41652406
0.30258872 0.12026861 0.41258311
0.39256674 0.12229945 0.40951953
0.48037383 0.12524153 0.40734026
0.56598561 0.12910281 0.40605220
0.64937768 0.13389126 0.40566229
0.73052565 0.13961485 0.40617745
0.02604352 0.21480404 0.41109025
0.11574521 0.21592956 0.41892984
0.21052533 0.21575414 0.42073873
0.30640633 0.21545635 0.42072912
0.40153229 0.21572018 0.41932033
0.49404030 0.21720041 0.41728743
0.58435819 0.21959730 0.41615271
0.67246156 0.22291881 0.41592310
0.75832603 0.22717291 0.41660551
0.02877746 0.31086907 0.41214395
0.11630975 0.31337039 0.41815468
0.20977690 0.31401532 0.42070851
0.30617288 0.31389463 0.42069057
0.40295733 0.31376997 0.42066971
0.50013025 0.31364135 0.42064591
0.59715651 0.31372373 0.42053270
0.68979643 0.31546038 0.42033424
0.77559124 0.31885046 0.42063735
0.03266028 0.40735829 0.41430042
0.11798097 0.41125271 0.41845931
0.20899243 0.41325636 0.42065470
0.30590339 0.41331275 0.42062844
0.40320283 0.41336518 0.42059925
0.50002338 0.41274203 0.41996391
0.59671958 0.41199967 0.41922154
0.69156342 0.41192557 0.41904469
0.77914516 0.41445857 0.42123102
0.03772045 0.50425928 0.41758248
0.12078738 0.50956411 0.41986653
0.20866568 0.51267150 0.42020611
0.30463710 0.51221075 0.41945475
0.40133330 0.51146838 0.41871239
0.49802950 0.51072602 0.41797003
0.59472570 0.50998366 0.41722766
0.69129365 0.50928007 0.41661008
0.78157663 0.51059976 0.42070224
0.04826983 0.59843814 0.42134996
0.13253484 0.60240169 0.42187335
0.21938058 0.60544574 0.42147722
0.30880706 0.60757027 0.42016158
0.40081426 0.60877528 0.41792643
0.49603562 0.60871001 0.41597615
0.59273183 0.60796765 0.41523378
0.68942803 0.60722528 0.41449142
0.78288566 0.60727402 0.41905101
0.07341594 0.68508369 0.42876220
0.15338998 0.69072261 0.42913965
0.23594475 0.69544201 0.42859758
0.32108024 0.69924190 0.42713601
0.40879647 0.70212227 0.42475492
0.49909342 0.70408313 0.42145431
0.59197111 0.70512448 0.41723419
0.68743415 0.70520927 0.41249754
0.78307225 0.70448136 0.41627735
0.08296161 0.77777751 0.43613257
0.17035830 0.78034856 0.43870363
0.25775499 0.78291961 0.44127468
0.33920269 0.78813556 0.43995969
0.42262794 0.79269130 0.43743266
0.50863392 0.79632752 0.43398612
0.59722063 0.79904422 0.42962006
0.68838806 0.80084141 0.42433449
0.78213623 0.80171893 0.41813130
0.02506808 0.02515850 0.49052416
0.11479949 0.02619187 0.49104613
0.20287093 0.02857712 0.48512481
0.28880269 0.03186514 0.48006182
0.37257037 0.03606389 0.47586409
0.45650724 0.04003741 0.47515596
0.54339010 0.04266263 0.47844490
0.63060282 0.04530302 0.48174754
0.71814541 0.04795858 0.48506389
0.02681057 0.11920582 0.49794610
0.11712840 0.11967115 0.50668426
0.20945145 0.12030066 0.50626077
0.30001330 0.12215138 0.50135011
0.38841628 0.12491029 0.49731167
0.47463598 0.12858535 0.49415237
0.55864801 0.13318452 0.49187913
0.64074114 0.13857780 0.49068763
0.72874804 0.14142393 0.49404042
0.03013049 0.21414723 0.49914320
0.11798788 0.21569786 0.51069093
0.21070744 0.21585179 0.51826333
0.30565511 0.21604411 0.51715043
0.39874758 0.21734521 0.51325857
0.48966197 0.21955991 0.51025281
0.57837388 0.22269618 0.50814007
0.66485893 0.22676198 0.50692727
0.74909270 0.23176527 0.50662134
0.03460102 0.30951324 0.50143296
0.12027588 0.31244173 0.51117752
0.21063054 0.31383031 0.51941174
0.30615035 0.31386527 0.52186490
0.40298103 0.31373955 0.52201141
0.49907910 0.31416977 0.52072108
0.59254511 0.31582516 0.51875613
0.68323127 0.31815705 0.51734669
0.77062017 0.32104420 0.51633821
0.04025063 0.40529143 0.50483817
0.12370080 0.40961508 0.51275658
0.21185115 0.41239363 0.51914441
0.30587746 0.41332587 0.52225221
0.40314794 0.41330516 0.52231037
0.49984415 0.41256279 0.52156801
0.59654035 0.41182043 0.52082564
0.69272164 0.41128581 0.51998915
0.78440151 0.41249760 0.51912661
0.04710782 0.50146936 0.50938164
0.12829112 0.50720549 0.51545091
0.21384539 0.51063609 0.51929236
0.30445786 0.51203151 0.52105886
0.40115406 0.51128915 0.52031649
0.49785027 0.51054678 0.51957413
0.59454647 0.50980442 0.51883176
0.69124267 0.50906206 0.51808940
0.78649755 0.50884140 0.51776726
0.05495267 0.59639797 0.51383168
0.13332099 0.60240185 0.51714974
0.21610906 0.60683097 0.51889305
0.30331689 0.60968533 0.51906160
0.39916018 0.60927314 0.51832261
0.49585639 0.60853078 0.51758025
0.59255259 0.60778841 0.51683788
0.68924879 0.60704605 0.51609552
0.78594499 0.60630368 0.51535316
0.06374127 0.68963313 0.51836647
0.14307509 0.69541747 0.51991740
0.22727975 0.69939846 0.52050883
0.31406514 0.70245994 0.52018074
0.40343126 0.70460190 0.51893314
0.49537811 0.70582435 0.51676603
0.59055871 0.70577240 0.51484401
0.68725491 0.70503004 0.51410164
0.78395111 0.70428767 0.51335928
0.08358236 0.77839826 0.52504607
0.16835726 0.78202363 0.52717727
0.24827095 0.78767998 0.52762276
0.33076537 0.79241682 0.52714874
0.41584051 0.79623414 0.52575520
0.50349639 0.79913195 0.52344215
0.59373299 0.80111024 0.52020958
0.68655032 0.80216902 0.51605750
0.78195723 0.80227166 0.51136540
0.02626364 0.02635649 0.56835872
0.11426089 0.02790203 0.57111697
0.20078668 0.03100595 0.56421046
0.28516043 0.03501756 0.55815712
0.37073623 0.03805701 0.55956654
0.45733091 0.04067064 0.56297921
0.54425546 0.04329943 0.56640559
0.63150988 0.04594340 0.56984568
0.71909415 0.04860255 0.57329947
0.02971236 0.11953801 0.57905955
0.11814414 0.12057991 0.58996387
0.20873053 0.12175620 0.59137718
0.29772816 0.12433200 0.58548334
0.38455454 0.12782089 0.58045655
0.46918530 0.13223085 0.57630374
0.55393963 0.13642944 0.57567830
0.64165836 0.13926397 0.57915482
0.72970694 0.14211368 0.58264506
0.03451810 0.21378429 0.58256534
0.12052916 0.21576152 0.59781354
0.21153772 0.21646394 0.60708084
0.30474667 0.21723832 0.60739722
0.39625633 0.21927089 0.60252418
0.48557555 0.22222197 0.59853208
0.57267994 0.22609953 0.59542783
0.65754511 0.23091153 0.59321837
0.74043428 0.23653899 0.59208753
0.04073041 0.30845261 0.58605974
0.12454585 0.31180976 0.59953047
0.21303214 0.31362842 0.61150822
0.30645005 0.31402043 0.61957241
0.40231465 0.31435954 0.61904800
0.49637654 0.31583378 0.61520389
0.58822880 0.31823195 0.61225460
0.67696906 0.32115669 0.60955311
0.76270807 0.32478225 0.60741114
0.04815203 0.40352108 0.59068228
0.12972967 0.40827546 0.60235254
0.21599855 0.41148615 0.61250961
0.30700045 0.41313951 0.62114162
0.40296871 0.41312592 0.62391447
0.49966491 0.41238356 0.62317211
0.59527095 0.41219155 0.62096680
0.68788166 0.41322223 0.61805125
0.77791164 0.41517244 0.61605522
0.05681146 0.49897729 0.59645574
0.13610335 0.50512869 0.60628421
0.21964166 0.50878179 0.61357647
0.30759973 0.51086013 0.61929398
0.40097483 0.51110991 0.62192059
0.49767103 0.51036755 0.62117823
0.59436723 0.50962518 0.62043587
0.69106343 0.50888282 0.61969350
0.78726595 0.50834059 0.61885005
0.06638653 0.59291921 0.60171435
0.14280384 0.59936039 0.60867554
0.22364091 0.60422681 0.61406198
0.30889773 0.60751847 0.61787365
0.39898095 0.60909390 0.61992671
0.49567715 0.60835154 0.61918435
0.59237335 0.60760917 0.61844199
0.68906955 0.60686681 0.61769962
0.78576576 0.60612445 0.61695726
0.07691071 0.68540450 0.60713396
0.15062678 0.69305901 0.61218933
0.22876260 0.69913875 0.61566993
0.31131818 0.70364374 0.61757577
0.39829352 0.70657396 0.61790686
0.49368327 0.70633553 0.61719047
0.59037947 0.70559317 0.61644811
0.68707567 0.70485080 0.61570574
0.78377188 0.70410844 0.61496338
0.08420312 0.77901902 0.61395957
0.15957216 0.78622455 0.61682555
0.23788077 0.79239669 0.61848435
0.32202508 0.79639511 0.61914381
0.40875012 0.79947402 0.61888377
0.49805589 0.80163341 0.61770421
0.58994239 0.80287329 0.61560513
0.68508180 0.80283479 0.61371186
0.78177800 0.80209243 0.61296950
0.02778689 0.02788325 0.64102818
0.11401163 0.02990596 0.64659759
0.19923596 0.03349862 0.64025880
0.28521260 0.03608547 0.64378150
0.37151911 0.03868750 0.64731792
0.45815549 0.04130470 0.65086803
0.54512173 0.04393708 0.65443186
0.63241783 0.04658463 0.65800938
0.72004379 0.04924736 0.66160062
0.03303147 0.12019883 0.65461685
0.11949117 0.12182061 0.66803443
0.20830214 0.12350832 0.67186452
0.29573398 0.12681111 0.66497401
0.38098223 0.13103190 0.65894540
0.46738552 0.13428993 0.66047336
0.55481606 0.13711287 0.66407362
0.64257647 0.13995099 0.66768759
0.73066674 0.14280428 0.67131526
0.03920702 0.21371586 0.66134790
0.12355866 0.21612736 0.67937693
0.21270289 0.21741119 0.69064537
0.30413394 0.21873190 0.69297609
0.39405924 0.22149785 0.68710839
0.48178175 0.22518723 0.68211646
0.56727706 0.22980799 0.67800723
0.65284966 0.23423152 0.67746268
0.74140425 0.23727537 0.68112680
0.04716634 0.30768781 0.66601554
0.12912034 0.31147512 0.68320475
0.21573625 0.31372535 0.69891838
0.30742772 0.31466685 0.70872376
0.40151237 0.31558785 0.70980321
0.49397133 0.31780187 0.70496644
0.58420830 0.32094473 0.70101933
0.67100982 0.32445929 0.69695349
0.75509893 0.32882327 0.69367804
0.05636519 0.40204790 0.67182398
0.13606829 0.40723449 0.68723842
0.22045368 0.41087881 0.70115705
0.30956316 0.41296721 0.71356799
0.40319731 0.41314528 0.72144118
0.49884228 0.41284293 0.72032491
0.59238383 0.41369252 0.71535636
0.68334464 0.41546162 0.71130733
0.77172472 0.41815023 0.70817781
0.06396021 0.49767431 0.68133893
0.14415359 0.50314005 0.69211916
0.22574090 0.50723046 0.70305455
0.31174796 0.50974610 0.71241518
0.40217478 0.51068699 0.72020105
0.49749179 0.51018831 0.72278233
0.59418800 0.50944595 0.72203997
0.68983020 0.50924191 0.71981191
0.78250126 0.51025517 0.71682832
0.07101294 0.59212486 0.68906213
0.15258966 0.59662189 0.69539531
0.23147572 0.60192562 0.70442487
0.31478154 0.60565458 0.71187967
0.40250712 0.60780879 0.71775971
0.49549791 0.60817230 0.72078845
0.59219412 0.60742994 0.72004609
0.68889032 0.60668757 0.71930373
0.78558652 0.60594521 0.71856136
0.07791841 0.68588232 0.69596760
0.16214817 0.68957065 0.69979391
0.23833299 0.69608770 0.70691764
0.31893757 0.70102999 0.71246661
0.40396190 0.70439751 0.71644081
0.49350403 0.70615629 0.71879457
0.59020024 0.70541393 0.71805221
0.68689644 0.70467157 0.71730985
0.78359264 0.70392920 0.71656748
0.08482387 0.77963978 0.70287307
0.17222056 0.78221083 0.70544412
0.24631270 0.78971670 0.71053285
0.32421604 0.79587231 0.71417598
0.40653913 0.80045316 0.71624436
0.49328197 0.80345925 0.71673798
0.58820636 0.80339792 0.71605833
0.68490256 0.80265556 0.71531597
0.78159876 0.80191319 0.71457360
0.02888929 0.02898744 0.72052168
0.11424790 0.03154753 0.72415442
0.19993637 0.03412279 0.72780086
0.28595470 0.03671322 0.73146101
0.37230290 0.03931883 0.73513486
0.45898096 0.04193962 0.73882242
0.54598889 0.04457558 0.74252369
0.63332668 0.04722671 0.74623866
0.72099433 0.04989302 0.74996733
0.03580795 0.12106564 0.73031385
0.12117029 0.12339398 0.74088609
0.20816696 0.12555765 0.74771402
0.29426628 0.12936311 0.74136251
0.38107879 0.13215928 0.74507280
0.46822116 0.13497063 0.74879681
0.55569339 0.13779715 0.75253451
0.64349549 0.14063885 0.75628592
0.73162745 0.14349572 0.76005104
0.04284115 0.21405802 0.74020292
0.12705733 0.21682382 0.75514154
0.21420375 0.21869427 0.76894705
0.30381760 0.22052549 0.77387827
0.39215700 0.22402674 0.76700243
0.47828124 0.22845632 0.76099720
0.56551244 0.23193291 0.76264222
0.65377885 0.23496517 0.76643007
0.74237511 0.23801260 0.77023163
0.04998891 0.30796459 0.75018886
0.13400005 0.31143843 0.76219161
0.21889195 0.31412529 0.78093376
0.30874468 0.31565226 0.79256834
0.40100968 0.31711897 0.79584288
0.49186416 0.32007468 0.78999997
0.58033361 0.32388199 0.78487631
0.66535355 0.32806486 0.77954785
0.75009080 0.33204167 0.77782764
0.05725121 0.40278533 0.76027169
0.14271734 0.40649280 0.76740546
0.22521724 0.41057224 0.78507797
0.31243228 0.41309719 0.80126019
0.40412299 0.41363346 0.81051965
0.49790802 0.41390846 0.81104194
0.58979967 0.41549646 0.80493990
0.67911059 0.41800397 0.79975737
0.76584077 0.42143100 0.79549436
0.06462807 0.49852026 0.77045141
0.15212491 0.50155921 0.77364121
0.23214310 0.50598209 0.78772659
0.31619916 0.50893503 0.80073035
0.40467497 0.51031322 0.81215934
0.49781135 0.51021706 0.81979874
0.59341647 0.50988890 0.81915423
0.68701837 0.51072105 0.81411764
0.77803953 0.51247272 0.81000057
0.07163369 0.59274562 0.77797563
0.15903038 0.59531667 0.78054668
0.23961350 0.59992738 0.78998173
0.32096832 0.60409365 0.80107966
0.40674289 0.60668516 0.81060282
0.49693722 0.60770192 0.81855122
0.59201488 0.60725070 0.82165019
0.68871108 0.60650834 0.82090783
0.78438903 0.60629240 0.81865752
0.07853916 0.68650307 0.78488110
0.16593585 0.68907413 0.78745215
0.24820635 0.69333960 0.79335931
0.32685992 0.69871920 0.80255141
0.40993325 0.70252403 0.81016874
0.49742633 0.70475410 0.81621131
0.59002100 0.70523469 0.81965631
0.68671720 0.70449233 0.81891395
0.78341340 0.70374996 0.81817159
0.08544463 0.78026053 0.79178657
0.17284132 0.78283158 0.79435762
0.25792164 0.78621875 0.79785934
0.33387396 0.79281166 0.80514560
0.41424605 0.79782982 0.81085710
0.49903789 0.80127321 0.81499385
0.58824949 0.80314185 0.81755583
0.68472332 0.80247632 0.81692007
0.78141952 0.80173396 0.81617771
