Buckswood_AutoGrade_Assistant/output/Buckswood_AutoGrade_buckswood_davinci_giveaway_ludwig_thumbnail_photoreal-ai_33.cube
TITLE "Buckswood AutoGrade 33"
LUT_3D_SIZE 33
DOMAIN_MIN 0.0 0.0 0.0
DOMAIN_MAX 1.0 1.0 1.0
0.01755592 0.01762708 0.01773381
0.04381906 0.01750572 0.01760902
0.07010420 0.01738416 0.01748408
0.09641135 0.01726240 0.01735899
0.12274051 0.01714043 0.01723375
0.14909167 0.01701825 0.01710836
0.17546484 0.01689587 0.01698282
0.20186002 0.01677329 0.01685714
0.22827721 0.01665050 0.01673130
0.25471640 0.01652751 0.01660532
0.28002562 0.01681625 0.01689326
0.30507770 0.01720454 0.01728122
0.32990995 0.01767900 0.01775573
0.35452174 0.01823985 0.01831698
0.37891243 0.01888731 0.01896513
0.40308136 0.01962157 0.01970039
0.42702790 0.02044285 0.02052292
0.45075140 0.02135135 0.02143291
0.47425123 0.02234730 0.02243055
0.49752674 0.02343089 0.02351602
0.52057728 0.02460234 0.02468949
0.54340222 0.02586185 0.02595115
0.56600091 0.02720965 0.02730119
0.58837271 0.02864592 0.02873978
0.61051698 0.03017090 0.03026712
0.63387170 0.03127093 0.03136770
0.65876730 0.03182810 0.03192336
0.68368159 0.03238615 0.03247981
0.70861457 0.03294508 0.03303706
0.73356624 0.03350488 0.03359510
0.75853660 0.03406556 0.03415393
0.78352565 0.03462712 0.03471355
0.80853340 0.03518956 0.03527396
0.01723704 0.04425648 0.01739976
0.04352938 0.04414519 0.01727454
0.06984373 0.04403371 0.01714917
0.09618008 0.04392202 0.01702366
0.12253844 0.04381012 0.01689799
0.14891881 0.04369802 0.01677218
0.17532118 0.04358572 0.01664621
0.20174556 0.04347321 0.01652010
0.22819195 0.04336049 0.01639384
0.25466035 0.04324758 0.01626743
0.28039378 0.04339555 0.01652237
0.30561843 0.04372891 0.01701501
0.33062295 0.04414853 0.01759451
0.35540668 0.04465462 0.01826106
0.37996900 0.04524738 0.01901483
0.40430925 0.04592704 0.01985601
0.42842680 0.04669379 0.02078478
0.45232100 0.04754785 0.02180133
0.47599120 0.04848943 0.02290582
0.49943678 0.04951873 0.02409846
0.52265707 0.05063597 0.02537941
0.54565145 0.05184136 0.02674887
0.56841927 0.05313511 0.02820701
0.59095988 0.05451742 0.02975402
0.61327265 0.05598851 0.03139007
0.63596972 0.05733265 0.03286256
0.66089166 0.05790065 0.03342032
0.68583228 0.05846954 0.03397888
0.71079160 0.05903930 0.03453824
0.73576961 0.05960994 0.03509838
0.76076630 0.06018146 0.03565932
0.78578169 0.06075386 0.03622105
0.81081576 0.06132714 0.03678357
0.01691628 0.07094147 0.01706449
0.04323782 0.07084026 0.01693885
0.06958137 0.07073885 0.01681305
0.09594692 0.07063724 0.01668711
0.12233448 0.07053541 0.01656102
0.14874405 0.07043339 0.01643478
0.17517563 0.07033116 0.01630839
0.20162921 0.07022872 0.01618185
0.22810480 0.07012608 0.01605517
0.25460240 0.07002324 0.01592833
0.28070101 0.07005882 0.01608872
0.30609889 0.07033698 0.01668640
0.33127631 0.07070149 0.01737125
0.35623264 0.07115255 0.01814345
0.38096724 0.07169036 0.01900319
0.40547946 0.07231514 0.01995065
0.42976866 0.07302710 0.02098601
0.45383420 0.07382645 0.02210946
0.47767544 0.07471340 0.02332117
0.50129173 0.07568815 0.02462133
0.52468242 0.07675092 0.02601012
0.54784689 0.07790191 0.02748772
0.57078448 0.07914134 0.02905432
0.59349456 0.08046942 0.03071009
0.61597647 0.08188635 0.03245523
0.63822958 0.08339235 0.03428990
0.66302265 0.08402508 0.03492289
0.68798961 0.08460480 0.03548356
0.71297526 0.08518540 0.03604502
0.73797960 0.08576688 0.03660727
0.76300263 0.08634924 0.03717032
0.78804435 0.08693247 0.03773415
0.81310476 0.08751659 0.03829879
0.01659363 0.09768206 0.01672801
0.04294437 0.09759092 0.01660194
0.06931712 0.09749959 0.01647572
0.09571188 0.09740805 0.01634935
0.12212864 0.09731630 0.01622283
0.14856741 0.09722435 0.01609617
0.17502819 0.09713219 0.01596936
0.20151098 0.09703983 0.01584239
0.22801577 0.09694727 0.01571528
0.25454257 0.09685450 0.01558802
0.28094688 0.09680624 0.01559197
0.30651863 0.09702895 0.01629503
0.33186961 0.09733808 0.01708558
0.35699919 0.09773384 0.01796380
0.38190671 0.09821643 0.01892986
0.40659155 0.09878608 0.01998395
0.43105306 0.09944298 0.02112626
0.45529059 0.10018735 0.02235696
0.47930350 0.10101939 0.02367623
0.50309115 0.10193932 0.02508427
0.52665290 0.10294735 0.02658125
0.54998810 0.10404369 0.02816735
0.57309611 0.10522854 0.02984276
0.59597630 0.10650212 0.03160765
0.61862801 0.10786464 0.03346222
0.64105060 0.10931629 0.03540664
0.66516028 0.11020139 0.03643106
0.69015358 0.11079195 0.03699384
0.71516556 0.11138339 0.03755741
0.74019624 0.11197570 0.03812177
0.76524560 0.11256890 0.03868692
0.79031365 0.11316297 0.03925287
0.81540040 0.11375792 0.03981960
0.01626908 0.12447824 0.01639031
0.04264903 0.12439718 0.01626382
0.06905098 0.12431592 0.01613717
0.09547494 0.12423445 0.01601038
0.12192091 0.12415278 0.01588344
0.14838888 0.12407091 0.01575635
0.17487886 0.12398882 0.01562911
0.20139085 0.12390654 0.01550172
0.22792485 0.12382405 0.01537418
0.25448085 0.12374135 0.01524649
0.28105886 0.12365845 0.01511866
0.30687721 0.12380500 0.01584056
0.33240240 0.12405848 0.01673717
0.35770587 0.12439868 0.01772175
0.38278698 0.12482579 0.01879448
0.40764508 0.12534003 0.01995556
0.43227954 0.12594160 0.02120517
0.45668971 0.12663073 0.02254347
0.48087494 0.12740761 0.02397067
0.50483460 0.12827246 0.02548694
0.52856805 0.12922548 0.02709246
0.55207464 0.13026689 0.02878741
0.57535372 0.13139690 0.03057198
0.59840466 0.13261571 0.03244635
0.62122682 0.13392354 0.03441070
0.64381955 0.13532059 0.03646522
0.66730455 0.13642958 0.03794484
0.69232417 0.13703097 0.03850973
0.71736249 0.13763325 0.03907540
0.74241950 0.13823640 0.03964187
0.76749520 0.13884043 0.04020913
0.79258959 0.13944534 0.04077718
0.81770267 0.14005113 0.04134603
0.01594266 0.15133002 0.01605140
0.04235180 0.15125904 0.01592448
0.06878296 0.15118785 0.01579741
0.09523612 0.15111646 0.01567019
0.12171129 0.15104486 0.01554282
0.14820847 0.15097306 0.01541531
0.17472765 0.15090105 0.01528764
0.20126884 0.15082884 0.01515983
0.22783204 0.15075642 0.01503187
0.25441724 0.15068380 0.01490375
0.28102445 0.15061098 0.01477549
0.30717421 0.15066532 0.01532264
0.33287425 0.15086289 0.01632565
0.35835226 0.15114726 0.01741695
0.38360760 0.15151862 0.01859672
0.40863961 0.15197719 0.01986513
0.43344767 0.15252317 0.02122239
0.45803113 0.15315678 0.02266866
0.48238934 0.15387823 0.02420413
0.50652166 0.15468773 0.02582898
0.53042745 0.15558548 0.02754339
0.55410607 0.15657170 0.02934755
0.57755687 0.15764660 0.03124164
0.60077922 0.15881038 0.03322584
0.62377247 0.16006326 0.03530033
0.64653598 0.16140544 0.03746530
0.66945544 0.16270964 0.03946423
0.69450141 0.16332187 0.04003122
0.71956606 0.16393499 0.04059900
0.74464940 0.16454898 0.04116758
0.76975144 0.16516384 0.04173695
0.79487216 0.16577959 0.04230711
0.82001157 0.16639622 0.04287806
0.01561434 0.17823739 0.01571128
0.04205269 0.17817648 0.01558393
0.06851305 0.17811537 0.01545644
0.09499541 0.17805405 0.01532879
0.12149978 0.17799253 0.01520100
0.14802616 0.17793080 0.01507306
0.17457455 0.17786887 0.01494497
0.20114494 0.17780674 0.01481673
0.22773734 0.17774439 0.01468834
0.25435175 0.17768185 0.01455980
0.28098816 0.17761910 0.01443112
0.30740917 0.17761010 0.01474091
0.33328472 0.17775150 0.01585069
0.35893792 0.17797977 0.01704905
0.38436813 0.17829511 0.01833620
0.40957471 0.17869774 0.01971232
0.43455702 0.17918787 0.02117757
0.45931441 0.17976571 0.02273216
0.48384624 0.18043146 0.02437626
0.50815187 0.18118534 0.02611004
0.53223066 0.18202756 0.02793371
0.55608196 0.18295832 0.02984743
0.57970513 0.18397784 0.03185138
0.60309953 0.18508632 0.03394576
0.62626452 0.18628398 0.03613075
0.64919946 0.18757103 0.03840652
0.67190369 0.18894767 0.04077326
0.69668527 0.18966466 0.04155831
0.72177626 0.19028860 0.04212820
0.74688594 0.19091343 0.04269889
0.77201431 0.19153914 0.04327037
0.79716136 0.19216572 0.04384263
0.82232711 0.19279318 0.04441570
0.01580439 0.20495256 0.01589387
0.04179380 0.20512859 0.01529467
0.06824124 0.20509849 0.01511425
0.09475281 0.20504725 0.01498618
0.12128639 0.20499580 0.01485796
0.14784197 0.20494415 0.01472959
0.17441955 0.20489229 0.01460108
0.20101915 0.20484023 0.01447241
0.22764075 0.20478796 0.01434360
0.25428436 0.20473549 0.01421463
0.28094998 0.20468281 0.01408552
0.30758167 0.20463955 0.01409503
0.33363337 0.20472450 0.01531192
0.35946241 0.20489640 0.01661771
0.38506814 0.20515547 0.01801260
0.41044993 0.20550189 0.01949676
0.43560714 0.20593590 0.02107037
0.46053911 0.20645769 0.02273363
0.48524521 0.20706748 0.02448670
0.50972480 0.20776548 0.02632978
0.53397723 0.20855189 0.02826305
0.55800186 0.20942693 0.03028668
0.58179805 0.21039081 0.03240086
0.60536516 0.21144373 0.03460578
0.62870254 0.21258590 0.03690161
0.65180955 0.21381754 0.03928853
0.67468554 0.21513886 0.04176674
0.69887577 0.21605932 0.04309102
0.72399309 0.21669410 0.04366301
0.74912911 0.21732977 0.04423581
0.77428381 0.21796631 0.04480939
0.79945720 0.21860373 0.04538377
0.82464928 0.21924203 0.04595894
0.01682543 0.23132682 0.01691305
0.04260962 0.23160468 0.01630547
0.06855570 0.23183244 0.01564646
0.09466404 0.23200997 0.01493591
0.12107110 0.23205466 0.01451371
0.14765589 0.23201308 0.01438491
0.17426268 0.23197130 0.01425597
0.20089147 0.23192931 0.01412688
0.22754228 0.23188712 0.01399764
0.25421509 0.23184472 0.01386825
0.28090991 0.23180212 0.01373872
0.30762673 0.23175931 0.01360903
0.33391976 0.23178208 0.01470900
0.35992529 0.23189735 0.01612257
0.38570719 0.23209987 0.01762555
0.41126485 0.23238983 0.01921811
0.43659760 0.23276744 0.02090043
0.46170480 0.23323293 0.02267271
0.48658582 0.23378649 0.02453512
0.51124002 0.23442833 0.02648784
0.53566674 0.23515868 0.02853106
0.55986535 0.23597773 0.03066496
0.58383520 0.23688569 0.03288972
0.60757566 0.23788278 0.03520552
0.63108608 0.23896921 0.03761255
0.65436581 0.24014518 0.04011099
0.67741422 0.24141091 0.04270102
0.70107291 0.24250585 0.04462932
0.72621656 0.24315148 0.04520343
0.75137891 0.24379798 0.04577833
0.77655995 0.24444536 0.04635402
0.80175967 0.24509362 0.04693051
0.82697809 0.24574275 0.04750778
0.01817114 0.25760146 0.01825822
0.04374928 0.25798144 0.01764246
0.06948922 0.25831135 0.01697516
0.09539135 0.25859107 0.01625620
0.12145604 0.25882048 0.01548550
0.14768366 0.25899945 0.01466293
0.17410391 0.25910591 0.01390966
0.20076191 0.25907400 0.01378014
0.22744191 0.25904188 0.01365047
0.25414393 0.25900955 0.01352066
0.28086795 0.25897703 0.01339070
0.30761398 0.25894429 0.01326059
0.33414346 0.25892443 0.01404158
0.36032612 0.25898281 0.01556329
0.38628485 0.25912851 0.01717470
0.41201901 0.25936173 0.01887602
0.43752795 0.25968269 0.02066741
0.46281104 0.26009160 0.02254906
0.48786763 0.26058867 0.02452115
0.51269708 0.26117410 0.02658388
0.53729874 0.26184811 0.02873740
0.56167198 0.26261090 0.03098192
0.58581614 0.26346269 0.03331761
0.60973060 0.26440368 0.03574466
0.63341470 0.26543409 0.03826324
0.65686781 0.26655413 0.04087354
0.68008928 0.26776400 0.04357574
0.70327668 0.26900427 0.04617323
0.72844667 0.26966073 0.04674945
0.75363535 0.27031807 0.04732646
0.77884272 0.27097629 0.04790426
0.80406878 0.27163538 0.04848285
0.82931353 0.27229535 0.04906224
0.01984379 0.28377548 0.01993121
0.04521504 0.28425785 0.01930746
0.07074802 0.28469019 0.01863206
0.09644311 0.28507238 0.01790490
0.12230067 0.28540430 0.01712589
0.14832109 0.28568582 0.01629491
0.17450473 0.28591682 0.01541185
0.20085198 0.28609718 0.01447661
0.22736320 0.28622678 0.01348909
0.25407088 0.28622998 0.01317185
0.28082410 0.28620753 0.01304146
0.30759208 0.28618169 0.01297958
0.33421039 0.28614136 0.01384458
0.36066447 0.28615296 0.01493950
0.38680067 0.28624158 0.01665971
0.41271198 0.28641780 0.01847013
0.43839777 0.28668184 0.02037094
0.46385739 0.28703391 0.02236232
0.48909019 0.28747421 0.02444446
0.51409554 0.28800296 0.02661753
0.53887279 0.28862037 0.02888172
0.56342130 0.28932664 0.03123721
0.58774043 0.29012199 0.03368419
0.61182954 0.29100662 0.03622283
0.63568798 0.29198075 0.03885331
0.65931511 0.29304458 0.04157583
0.68271028 0.29419833 0.04439056
0.70587286 0.29544220 0.04729769
0.73068340 0.29622187 0.04830108
0.75589842 0.29689004 0.04888019
0.78113212 0.29755909 0.04946010
0.80638452 0.29822903 0.05004080
0.83150576 0.29884249 0.05060586
0.02184566 0.30984789 0.02193384
0.04700920 0.31043293 0.02130229
0.07233439 0.31096798 0.02061899
0.09782159 0.31145291 0.01988383
0.12347120 0.31188762 0.01909670
0.14928358 0.31227196 0.01825750
0.17525910 0.31260583 0.01736611
0.20139815 0.31288909 0.01642244
0.22770110 0.31312163 0.01542638
0.25416832 0.31330332 0.01437781
0.28080019 0.31343404 0.01327664
0.30756499 0.31344033 0.01310555
0.33424810 0.31338900 0.01405277
0.36080944 0.31338860 0.01505263
0.38724863 0.31343925 0.01610523
0.41334333 0.31355823 0.01800011
0.43920661 0.31376508 0.02001069
0.46484340 0.31406004 0.02211215
0.49025307 0.31444332 0.02430468
0.51543497 0.31491512 0.02658846
0.54038846 0.31547566 0.02896366
0.56511290 0.31612514 0.03143048
0.58960764 0.31686378 0.03398909
0.61387204 0.31769179 0.03663968
0.63790546 0.31860937 0.03938243
0.66170726 0.31961673 0.04221752
0.68527679 0.32071409 0.04514513
0.70861342 0.32190165 0.04816545
0.73292678 0.32283488 0.04985831
0.75812493 0.32349468 0.05043439
0.78307386 0.32404050 0.05098020
0.80802280 0.32458631 0.05152602
0.83297174 0.32513213 0.05207183
0.02417905 0.33581770 0.02426794
0.04913404 0.33650568 0.02362879
0.07425059 0.33714371 0.02293779
0.09952909 0.33773167 0.02219481
0.12496990 0.33826943 0.02139976
0.15057341 0.33875688 0.02055253
0.17633998 0.33919388 0.01965301
0.20227000 0.33958032 0.01870110
0.22836384 0.33991608 0.01769669
0.25462187 0.34020103 0.01663967
0.28104447 0.34043505 0.01552994
0.30763201 0.34061801 0.01436739
0.33434655 0.34066227 0.01432451
0.36097264 0.34065083 0.01540714
0.38747631 0.34069053 0.01654273
0.41385719 0.34078147 0.01773137
0.43995403 0.34093260 0.01958629
0.46576865 0.34117018 0.02179819
0.49135584 0.34149617 0.02410147
0.51671494 0.34191075 0.02649630
0.54184531 0.34241416 0.02898288
0.56674632 0.34300659 0.03156137
0.59141732 0.34368826 0.03423198
0.61585767 0.34445937 0.03699487
0.64006672 0.34532013 0.03985023
0.66404384 0.34627076 0.04279824
0.68778838 0.34731147 0.04583909
0.71106396 0.34832459 0.04894415
0.73464197 0.34923851 0.05135455
0.75959090 0.34978432 0.05190037
0.78453984 0.35033014 0.05244618
0.80948878 0.35087595 0.05299200
0.83443771 0.35142177 0.05353781
0.02684624 0.36168390 0.02693533
0.05159184 0.36247510 0.02628878
0.07649893 0.36321639 0.02559026
0.10156788 0.36390765 0.02483967
0.12679907 0.36454875 0.02403690
0.15219287 0.36513957 0.02318184
0.17774966 0.36567999 0.02227438
0.20346982 0.36616989 0.02131442
0.22935371 0.36660914 0.02030186
0.25540172 0.36699763 0.01923658
0.28161421 0.36733522 0.01811848
0.30799157 0.36762179 0.01694746
0.33453417 0.36785724 0.01572340
0.36119726 0.36793838 0.01582589
0.38776563 0.36796700 0.01704481
0.41421093 0.36804695 0.01831699
0.44053279 0.36817835 0.01964253
0.46663270 0.36836453 0.02142010
0.49239804 0.36863295 0.02383447
0.51793499 0.36899006 0.02634072
0.54324290 0.36943607 0.02893902
0.56832113 0.36997118 0.03162955
0.59316904 0.37059561 0.03441249
0.61778598 0.37130956 0.03728804
0.64203673 0.37203609 0.04024156
0.66591596 0.37277915 0.04327095
0.68954599 0.37361101 0.04638912
0.71292682 0.37453165 0.04959609
0.73610795 0.37552815 0.05282053
0.76105688 0.37607397 0.05336635
0.78600582 0.37661978 0.05391216
0.81095476 0.37716559 0.05445798
0.83590369 0.37771141 0.05500379
0.02984950 0.38744551 0.02993784
0.05438488 0.38834021 0.02928408
0.07908167 0.38918504 0.02857825
0.10394024 0.38997987 0.02782024
0.12896098 0.39072458 0.02700994
0.15414424 0.39141906 0.02614724
0.17949041 0.39206317 0.02523204
0.20499987 0.39265680 0.02426423
0.23067299 0.39319982 0.02324371
0.25651014 0.39369211 0.02217037
0.28251169 0.39413355 0.02104410
0.30867804 0.39452402 0.01986480
0.33500954 0.39486339 0.01863236
0.36150657 0.39515154 0.01734667
0.38811702 0.39526849 0.01761182
0.41462697 0.39533733 0.01896788
0.44101321 0.39545770 0.02037751
0.46727535 0.39562971 0.02184083
0.49337926 0.39585387 0.02350334
0.51909470 0.39615324 0.02612135
0.54458079 0.39654158 0.02883173
0.56978952 0.39698724 0.03163006
0.59456868 0.39739551 0.03450053
0.61909863 0.39789258 0.03745979
0.64337938 0.39847844 0.04050784
0.66741092 0.39915310 0.04364469
0.69119326 0.39991654 0.04687032
0.71472639 0.40076877 0.05018475
0.73801032 0.40170980 0.05358797
0.76252286 0.40236361 0.05483232
0.78747180 0.40290942 0.05537814
0.81242073 0.40345524 0.05592395
0.83736967 0.40400105 0.05646977
0.03319112 0.41310153 0.03327730
0.05751545 0.41410000 0.03261653
0.08200111 0.41504864 0.03190358
0.10664847 0.41594732 0.03113834
0.13145791 0.41679592 0.03032070
0.15642980 0.41759433 0.02945056
0.18156453 0.41834241 0.02852782
0.20686245 0.41904004 0.02755236
0.23232396 0.41968711 0.02652408
0.25794941 0.42028349 0.02544287
0.28373920 0.42082906 0.02430862
0.30969369 0.42132369 0.02312124
0.33581326 0.42176726 0.02188061
0.36209829 0.42215965 0.02058662
0.38854914 0.42250074 0.01923918
0.41510574 0.42265242 0.01968439
0.44155658 0.42276164 0.02117846
0.46788305 0.42292258 0.02272642
0.49408478 0.42313537 0.02432836
0.51996922 0.42325120 0.02596765
0.54543130 0.42341381 0.02862154
0.57061196 0.42366489 0.03151068
0.59554343 0.42400475 0.03448860
0.62022569 0.42443341 0.03755533
0.64465874 0.42495086 0.04071084
0.66884259 0.42555710 0.04395514
0.69277724 0.42625213 0.04728824
0.71646268 0.42703595 0.05071012
0.73989891 0.42790856 0.05422080
0.76398884 0.42865325 0.05629830
0.78893778 0.42919906 0.05684412
0.81388671 0.42974488 0.05738993
0.83883565 0.43029069 0.05793575
0.03687338 0.43865096 0.03695553
0.06098582 0.43975348 0.03628794
0.08525952 0.44080621 0.03556807
0.10969484 0.44180901 0.03479580
0.13429215 0.44276178 0.03397102
0.15905184 0.44366439 0.03309364
0.18397428 0.44451672 0.03216354
0.20905984 0.44531864 0.03118062
0.23430890 0.44607003 0.03014478
0.25972183 0.44677077 0.02905589
0.28529902 0.44742074 0.02791387
0.31104083 0.44801981 0.02671860
0.33694763 0.44856786 0.02546997
0.36301981 0.44906477 0.02416789
0.38925774 0.44951042 0.02281223
0.41566180 0.44990468 0.02140291
0.44205680 0.44998805 0.02203647
0.46824553 0.44995998 0.02365147
0.49428875 0.44998375 0.02531832
0.52018645 0.45005937 0.02703702
0.54593865 0.45018684 0.02880756
0.57137112 0.45037259 0.03132801
0.59645489 0.45064405 0.03441339
0.62128945 0.45100429 0.03758757
0.64587482 0.45145333 0.04085054
0.67021097 0.45199115 0.04420231
0.69429793 0.45261777 0.04764286
0.71813567 0.45333318 0.05117220
0.74172422 0.45413738 0.05479034
0.76545482 0.45494289 0.05776428
0.79040375 0.45548870 0.05831010
0.81535269 0.45603452 0.05885591
0.84030163 0.45658033 0.05940172
0.04089856 0.46409281 0.04097436
0.06479829 0.46529966 0.04030015
0.08885919 0.46645674 0.03957355
0.11308163 0.46756396 0.03879444
0.13746599 0.46862117 0.03796272
0.16201264 0.46962826 0.03707829
0.18672196 0.47058510 0.03614104
0.21159432 0.47149158 0.03515086
0.23663010 0.47234758 0.03410764
0.26182968 0.47315295 0.03301128
0.28719342 0.47390760 0.03186167
0.31272171 0.47461139 0.03065871
0.33841492 0.47526420 0.02940228
0.36423322 0.47581746 0.02808704
0.39008935 0.47618045 0.02670426
0.41609099 0.47649159 0.02526964
0.44223814 0.47675089 0.02378317
0.46845294 0.47678067 0.02462131
0.49453272 0.47678315 0.02636956
0.52046698 0.47683749 0.02816967
0.54625573 0.47694367 0.03002162
0.57189897 0.47710169 0.03192541
0.59730306 0.47731340 0.03427489
0.62228993 0.47760523 0.03755653
0.64702760 0.47798585 0.04092696
0.67151607 0.47845527 0.04438618
0.69575533 0.47901347 0.04793419
0.71974538 0.47966047 0.05157100
0.74348624 0.48039626 0.05529659
0.76697788 0.48122084 0.05911098
0.79186973 0.48177834 0.05977607
0.81681867 0.48232416 0.06032189
0.84176761 0.48286997 0.06086770
0.04448497 0.48979868 0.04455026
0.06895513 0.49073753 0.04465498
0.09280240 0.49199926 0.04392185
0.11681113 0.49321115 0.04313610
0.14098169 0.49437308 0.04229763
0.16531447 0.49548493 0.04140635
0.18980984 0.49654657 0.04046213
0.21446817 0.49755789 0.03946488
0.23928984 0.49851875 0.03841449
0.26427523 0.49942905 0.03731084
0.28942470 0.50028864 0.03615385
0.31460938 0.50091243 0.03491980
0.33993255 0.50147357 0.03363249
0.36540122 0.50198288 0.03229333
0.39101540 0.50244033 0.03090232
0.41677510 0.50284594 0.02945947
0.44268031 0.50319971 0.02796477
0.46873104 0.50350162 0.02641823
0.49483997 0.50355249 0.02748410
0.52081080 0.50358554 0.02936561
0.54663610 0.50367044 0.03129896
0.57231590 0.50380718 0.03328417
0.59785019 0.50399576 0.03532122
0.62322712 0.50423622 0.03746220
0.64811710 0.50454844 0.04094009
0.67275787 0.50494944 0.04450677
0.69714944 0.50543923 0.04816224
0.72129180 0.50601782 0.05190650
0.74518496 0.50668520 0.05573956
0.76882892 0.50744137 0.05966140
0.79333571 0.50806799 0.06124205
0.81828465 0.50861380 0.06178787
0.84323358 0.50915962 0.06233368
0.04604405 0.51652329 0.04609332
0.07097276 0.51726441 0.04666921
0.09592015 0.51800641 0.04724590
0.12088561 0.51874959 0.04782259
0.14484156 0.52001652 0.04697758
0.16895963 0.52123340 0.04607963
0.19324022 0.52240012 0.04512865
0.21768368 0.52351655 0.04412453
0.24222049 0.52445438 0.04304791
0.26686518 0.52526553 0.04190790
0.29165537 0.52602483 0.04071605
0.31659108 0.52673229 0.03947236
0.34167229 0.52738790 0.03817681
0.36689902 0.52799166 0.03682942
0.39227127 0.52854358 0.03543019
0.41778902 0.52904366 0.03397911
0.44345229 0.52949188 0.03247618
0.46926107 0.52988827 0.03092141
0.49521536 0.53023280 0.02931479
0.52121790 0.53030354 0.03062484
0.54707977 0.53036715 0.03263960
0.57279612 0.53048261 0.03470621
0.59836696 0.53064991 0.03682466
0.62379229 0.53086905 0.03899497
0.64907211 0.53114005 0.04121711
0.67393639 0.53147367 0.04456407
0.69848027 0.53189505 0.04832700
0.72277494 0.53240522 0.05217872
0.74682040 0.53300419 0.05611924
0.77061667 0.53369195 0.06014854
0.79480169 0.53435763 0.06270803
0.81975063 0.53490344 0.06325384
0.84469956 0.53544926 0.06379966
0.04760977 0.54329977 0.04764198
0.07256481 0.54405173 0.04821998
0.09753854 0.54480456 0.04879877
0.12253095 0.54555828 0.04937836
0.14754206 0.54631287 0.04995874
0.17254425 0.54700190 0.05052864
0.19688888 0.54786745 0.05009588
0.22100060 0.54887675 0.04905134
0.24525782 0.54983421 0.04795495
0.26966056 0.55073982 0.04680672
0.29420881 0.55159359 0.04560664
0.31890257 0.55239551 0.04435471
0.34374185 0.55314559 0.04305094
0.36872663 0.55384382 0.04169532
0.39385693 0.55449020 0.04028786
0.41913275 0.55508474 0.03882855
0.44455407 0.55562743 0.03731739
0.47012091 0.55611828 0.03575439
0.49583325 0.55655727 0.03413954
0.52169112 0.55694443 0.03247285
0.54758671 0.55703381 0.03404352
0.57333963 0.55712798 0.03619154
0.59894703 0.55727399 0.03839140
0.62440892 0.55747186 0.04064311
0.64972530 0.55772156 0.04294667
0.67489616 0.55802312 0.04530207
0.69974780 0.55838092 0.04842847
0.72419478 0.55882269 0.05238765
0.74839256 0.55935324 0.05643562
0.77234112 0.55997258 0.06057239
0.79626767 0.56064727 0.06417401
0.82121660 0.56119308 0.06471982
0.84616554 0.56173890 0.06526564
0.04918212 0.57012813 0.04919624
0.07416349 0.57089093 0.04977635
0.09916341 0.57165409 0.05035717
0.12411235 0.57219991 0.05090299
0.14906129 0.57274572 0.05144880
0.17401023 0.57329154 0.05199462
0.19895916 0.57383735 0.05254043
0.22390810 0.57438317 0.05308625
0.24862495 0.57505741 0.05319180
0.27278575 0.57605749 0.05203534
0.29709205 0.57700572 0.05082703
0.32154387 0.57790211 0.04956688
0.34614121 0.57874665 0.04825487
0.37088405 0.57953934 0.04689103
0.39577241 0.58028019 0.04547534
0.42080627 0.58096919 0.04400780
0.44598566 0.58160634 0.04248841
0.47131055 0.58219165 0.04091718
0.49678095 0.58272511 0.03929411
0.52239687 0.58320673 0.03761918
0.54815830 0.58363650 0.03589241
0.57394642 0.58374329 0.03774016
0.59959038 0.58386802 0.04002143
0.62508883 0.58404460 0.04235454
0.65044177 0.58427302 0.04473951
0.67564919 0.58455329 0.04717631
0.70071110 0.58488541 0.04966497
0.72555134 0.58527020 0.05253329
0.74990142 0.58573235 0.05668873
0.77400230 0.58628328 0.06093295
0.79785397 0.58692300 0.06526596
