Buckswood_AutoGrade_Assistant/output/Buckswood_AutoGrade_buckswood_davinci_giveaway_ludwig_thumbnail_photoreal-ai_33.cube
TITLE "Buckswood AutoGrade 33"
LUT_3D_SIZE 9
DOMAIN_MIN 0.0 0.0 0.0
DOMAIN_MAX 1.0 1.0 1.0
0.01755592 0.01762708 0.01773381
0.12274051 0.01714043 0.01723375
0.22827721 0.01665050 0.01673130
0.32990995 0.01767900 0.01775573
0.42702790 0.02044285 0.02052292
0.52057728 0.02460234 0.02468949
0.61051698 0.03017090 0.03026712
0.70861457 0.03294508 0.03303706
0.80853340 0.03518956 0.03527396
0.01626908 0.12447824 0.01639031
0.12192091 0.12415278 0.01588344
0.22792485 0.12382405 0.01537418
0.33240240 0.12405848 0.01673717
0.43227954 0.12594160 0.02120517
0.52856805 0.12922548 0.02709246
0.62122682 0.13392354 0.03441070
0.71736249 0.13763325 0.03907540
0.81770267 0.14005113 0.04134603
0.01682543 0.23132682 0.01691305
0.12107110 0.23205466 0.01451371
0.22754228 0.23188712 0.01399764
0.33391976 0.23178208 0.01470900
0.43659760 0.23276744 0.02090043
0.53566674 0.23515868 0.02853106
0.63108608 0.23896921 0.03761255
0.72621656 0.24315148 0.04520343
0.82697809 0.24574275 0.04750778
0.02417905 0.33581770 0.02426794
0.12496990 0.33826943 0.02139976
0.22836384 0.33991608 0.01769669
0.33434655 0.34066227 0.01432451
0.43995403 0.34093260 0.01958629
0.54184531 0.34241416 0.02898288
0.64006672 0.34532013 0.03985023
0.73464197 0.34923851 0.05135455
0.83443771 0.35142177 0.05353781
0.03687338 0.43865096 0.03695553
0.13429215 0.44276178 0.03397102
0.23430890 0.44607003 0.03014478
0.33694763 0.44856786 0.02546997
0.44205680 0.44998805 0.02203647
0.54593865 0.45018684 0.02880756
0.64587482 0.45145333 0.04085054
0.74172422 0.45413738 0.05479034
0.84030163 0.45658033 0.05940172
0.04760977 0.54329977 0.04764198
0.14754206 0.54631287 0.04995874
0.24525782 0.54983421 0.04795495
0.34374185 0.55314559 0.04305094
0.44455407 0.55562743 0.03731739
0.54758671 0.55703381 0.03404352
0.64972530 0.55772156 0.04294667
0.74839256 0.55935324 0.05643562
0.84616554 0.56173890 0.06526564
0.05366348 0.64943139 0.05366348
0.15345922 0.65161465 0.05584674
0.25325497 0.65379791 0.05802999
0.35305072 0.65598117 0.06021325
0.45225925 0.65860328 0.05998031
0.55152858 0.66176700 0.05328557
0.65297091 0.66374706 0.05049775
0.75336623 0.66492379 0.06153295
0.85202945 0.66689746 0.07112955
0.05952739 0.75458995 0.05952739
0.15932314 0.75677321 0.06171065
0.25911888 0.75895647 0.06389391
0.35891463 0.76113973 0.06607717
0.45871038 0.76332299 0.06826043
0.55850612 0.76550625 0.07044368
0.65830187 0.76768951 0.07262694
0.75820938 0.77012780 0.07139916
0.85789337 0.77205603 0.07699346
0.06539130 0.85974852 0.06539130
0.16518705 0.86193178 0.06757456
0.26498280 0.86411504 0.06975782
0.36477854 0.86629830 0.07194108
0.46457429 0.86848155 0.07412434
0.56437004 0.87066481 0.07630760
0.66416578 0.87284807 0.07849086
0.76396153 0.87503133 0.08067412
0.86375728 0.87721459 0.08285738
0.01744229 0.01751123 0.12711759
0.12266882 0.01702370 0.12676916
0.22824747 0.01653288 0.12641835
0.33256086 0.01668198 0.12589972
0.43335479 0.01829366 0.12582057
0.52866081 0.02206636 0.12692647
0.62036595 0.02724674 0.12942633
0.70939694 0.03348625 0.13317285
0.80935360 0.03573406 0.13553428
0.01615259 0.12440106 0.12618126
0.12184636 0.12407472 0.12582602
0.22789224 0.12374510 0.12546840
0.33429023 0.12341220 0.12510840
0.43714336 0.12447183 0.12609438
0.53520141 0.12736690 0.12889572
0.62963851 0.13167475 0.13311092
0.72041355 0.13740881 0.13875164
0.81853229 0.14063728 0.14194072
0.01483267 0.23218041 0.12522551
0.12099368 0.23201526 0.12486346
0.22750680 0.23184684 0.12449903
0.33437204 0.23167513 0.12413222
0.43996861 0.23198892 0.12536874
0.54082019 0.23398931 0.12988814
0.63803076 0.23740761 0.13584129
0.73155920 0.24225723 0.14323988
0.82781713 0.24637057 0.14843685
0.01978724 0.33812059 0.12747610
0.12206141 0.33992577 0.12574491
0.22709116 0.34083810 0.12351024
0.33442363 0.34082759 0.12313662
0.44180249 0.34085714 0.12362122
0.54548910 0.34194584 0.12988129
0.64551464 0.34445756 0.13759502
0.74100565 0.34800928 0.14659747
0.83496484 0.35194890 0.15455563
0.03118296 0.44195557 0.13529441
0.13009118 0.44541838 0.13343985
0.23160954 0.44807377 0.13074862
0.33576204 0.44991391 0.12721392
0.44226906 0.45059500 0.12353650
0.54791459 0.45026227 0.12857147
0.64951135 0.45113115 0.13780396
0.74712085 0.45342070 0.14845713
0.84082875 0.45710746 0.16041954
0.04804620 0.54408361 0.14848788
0.14351414 0.54916199 0.14650469
0.24115841 0.55263674 0.14345279
0.34113089 0.55528196 0.13957136
0.44343156 0.55709765 0.13486039
0.54802161 0.55796206 0.13088370
0.65204920 0.55811258 0.13756087
0.75222344 0.55931304 0.14930418
0.84828259 0.56192866 0.16309735
0.05419060 0.64995851 0.15468129
0.15398635 0.65214177 0.15686455
0.25378210 0.65432503 0.15904781
0.35142410 0.65770557 0.15708323
0.44985368 0.66103268 0.15224061
0.55061146 0.66353024 0.14656844
0.65362843 0.66499662 0.14267806
0.75591276 0.66563611 0.15148729
0.85480949 0.66720732 0.16465113
0.06005452 0.75511708 0.16054520
0.15985026 0.75730034 0.16272846
0.25964601 0.75948360 0.16491172
0.35944176 0.76166686 0.16709498
0.45923750 0.76385012 0.16927824
0.55843939 0.76647056 0.16909389
0.65765427 0.76965001 0.16246053
0.75908954 0.77169867 0.15891961
0.85963061 0.77282714 0.16986089
0.06591843 0.86027564 0.16640911
0.16571417 0.86245890 0.16859237
0.26550992 0.86464216 0.17077563
0.36530567 0.86682542 0.17295889
0.46510142 0.86900868 0.17514215
0.56489716 0.87119194 0.17732541
0.66469291 0.87337520 0.17950867
0.76448866 0.87555846 0.18169193
0.86440493 0.87806821 0.17960833
0.01732839 0.01739515 0.23657473
0.12259686 0.01690673 0.23637793
0.22646197 0.01726763 0.23422518
0.32829834 0.01851392 0.23249049
0.42821009 0.02057141 0.23155129
0.52617320 0.02344792 0.23141442
0.62216365 0.02715129 0.23208666
0.71615746 0.03168936 0.23357485
0.81017463 0.03627933 0.23585399
0.01603582 0.12432364 0.23604556
0.12177153 0.12399641 0.23584196
0.22785936 0.12366591 0.23563598
0.33429930 0.12333213 0.23542761
0.43948776 0.12363474 0.23502199
0.54157839 0.12523758 0.23501971
0.63779581 0.12915376 0.23613940
0.73035996 0.13449475 0.23866752
0.81936275 0.14122422 0.24259481
0.01471303 0.23214166 0.23549699
0.12091599 0.23197563 0.23528657
0.22747105 0.23180631 0.23507378
0.33437823 0.23163372 0.23485860
0.44163753 0.23145786 0.23464105
0.54571212 0.23254792 0.23559685
0.64471590 0.23557252 0.23842922
0.74004636 0.24002704 0.24268992
0.83166236 0.24592493 0.24839062
0.01512030 0.34015879 0.23501122
0.12003024 0.34084436 0.23471177
0.22705254 0.34083624 0.23449216
0.33442696 0.34082485 0.23427018
0.44215349 0.34081017 0.23404581
0.54886625 0.34120419 0.23516226
0.65069790 0.34332018 0.23972992
0.74769471 0.34634279 0.24539824
0.84064011 0.35075309 0.25246609
0.02521276 0.44499461 0.23798523
0.12561195 0.44780751 0.23727388
0.22863344 0.44980817 0.23573094
0.33444547 0.45090550 0.23366234
0.44217345 0.45060541 0.23322094
0.54951771 0.45006130 0.23314727
0.65287457 0.45053567 0.23909313
0.75224416 0.45243070 0.24645966
0.84762648 0.45574640 0.25524686
0.04075346 0.54813787 0.24625995
0.13765296 0.55235736 0.24531571
0.23678569 0.55516596 0.24328638
0.33824661 0.55714502 0.24042752
0.44203573 0.55829455 0.23673913
0.54814872 0.55858254 0.23260625
0.65397450 0.55819909 0.23742261
0.75578101 0.55899952 0.24650848
0.85360025 0.56122063 0.25701501
0.05471773 0.65048564 0.25569910
0.15440531 0.65271730 0.25780820
0.24966694 0.65703732 0.25564722
0.34725677 0.66052781 0.25265671
0.44717480 0.66318875 0.24883665
0.54942103 0.66502017 0.24418706
0.65397818 0.66593840 0.23974076
0.75815153 0.66604066 0.24632402
0.85856140 0.66717577 0.25777056
0.06058164 0.75564421 0.26156302
0.16037739 0.75782747 0.26374627
0.26017314 0.76001072 0.26592953
0.35996888 0.76219398 0.26811279
0.45759076 0.76557682 0.26621107
0.55596590 0.76891965 0.26142982
0.65666923 0.77143295 0.25581903
0.75966192 0.77296175 0.25132244
0.86209201 0.77355299 0.26003776
0.06644555 0.86080277 0.26742693
0.16624130 0.86298603 0.26961019
0.26603705 0.86516929 0.27179345
0.36583280 0.86735255 0.27397671
0.46562854 0.86953581 0.27615997
0.56542429 0.87171907 0.27834322
0.66461990 0.87433773 0.27820702
0.76378034 0.87753290 0.27163505
0.86519927 0.87962826 0.26735063
0.01742634 0.01749181 0.34270549
0.12151300 0.01763029 0.34091661
0.22385851 0.01871735 0.33753840
0.32429124 0.02061258 0.33494380
0.42278718 0.02332383 0.33313962
0.51932232 0.02685894 0.33213267
0.61387264 0.03122574 0.33192977
0.71096419 0.03457095 0.33362262
0.81099651 0.03682539 0.33623309
0.01684352 0.12409595 0.34357644
0.12169643 0.12391788 0.34593126
0.22782621 0.12358649 0.34587691
0.33257738 0.12409979 0.34380334
0.43527038 0.12551000 0.34213376
0.53600768 0.12774157 0.34126826
0.63476529 0.13080232 0.34121366
0.73151920 0.13470009 0.34197677
0.82624539 0.13944273 0.34356440
0.01737765 0.23126608 0.34303002
0.12083802 0.23193575 0.34578304
0.22743504 0.23176556 0.34572188
0.33438416 0.23159208 0.34565835
0.44168540 0.23141533 0.34559243
0.54774957 0.23187128 0.34529965
0.65076781 0.23360829 0.34538084
0.74827528 0.23752126 0.34651532
0.84170406 0.24302119 0.34906858
0.01890915 0.33884172 0.34345479
0.11994941 0.34084316 0.34561541
0.22701365 0.34083415 0.34554744
0.33443002 0.34082187 0.34547709
0.44219849 0.34080631 0.34540436
0.55031908 0.34078747 0.34532925
0.65541769 0.34180787 0.34617420
0.75411045 0.34440299 0.34853475
0.84881594 0.34841877 0.35231597
0.02146604 0.44681066 0.34487317
0.12085378 0.44992856 0.34548173
0.22656206 0.45079227 0.34535358
0.33444566 0.45094118 0.34527642
0.44203647 0.45046843 0.34477379
0.54955216 0.44990107 0.34420644
0.65596448 0.44966686 0.34471805
0.75709416 0.45116738 0.34879795
0.85423657 0.45408857 0.35429850
0.03317558 0.55192506 0.34841754
0.13151847 0.55527941 0.34846247
0.23213964 0.55742186 0.34745572
0.33508901 0.55873476 0.34561944
0.44051263 0.55913563 0.34324996
0.54802832 0.55856827 0.34268260
0.65549866 0.55800676 0.34224929
0.75906526 0.55841269 0.34804853
0.85864459 0.56023928 0.35526843
0.05256588 0.65211513 0.35598114
0.14698776 0.65659853 0.35567227
0.24373784 0.66025240 0.35453387
0.34281612 0.66307672 0.35256593
0.44422260 0.66507152 0.34976845
0.54795727 0.66623677 0.34614143
0.65402015 0.66657240 0.34168584
0.76002375 0.66613892 0.34628650
0.86204000 0.66687091 0.35522574
0.06110877 0.75617133 0.36258083
0.16090452 0.75835459 0.36476409
0.26061293 0.76057680 0.36688890
0.35582012 0.76491255 0.36478930
0.45335551 0.76841876 0.36186017
0.55321909 0.77109544 0.35810149
0.65541087 0.77294257 0.35351329
0.75992652 0.77391706 0.34860766
0.86424562 0.77397106 0.35509701
0.06697268 0.86132990 0.36844474
0.16676843 0.86351316 0.37062800
0.26656418 0.86569642 0.37281126
0.36635992 0.86787968 0.37499452
0.46615567 0.87006294 0.37717778
0.56375780 0.87344797 0.37533845
0.66207849 0.87680653 0.37061858
0.76272663 0.87930847 0.36506843
0.86568502 0.88085098 0.35997451
0.01796942 0.01803535 0.44177380
0.12056017 0.01869949 0.44096513
0.22151268 0.02043252 0.43671881
0.32054024 0.02297857 0.43325103
0.41761884 0.02634548 0.43056860
0.51272448 0.03054107 0.42867832
0.61197795 0.03287077 0.43121427
0.71174906 0.03511448 0.43393659
0.81181922 0.03737223 0.43667159
0.01878153 0.12391423 0.44560180
0.12189989 0.12406748 0.45222704
0.22682931 0.12433904 0.45093498
0.33004268 0.12558803 0.44760201
0.43131222 0.12765535 0.44506122
0.53061391 0.13054886 0.44331944
0.62792374 0.13427639 0.44238348
0.72321771 0.13884578 0.44226015
0.82102617 0.14240044 0.44408115
0.02085540 0.23046275 0.44618167
0.12188284 0.23170901 0.45349190
0.22739875 0.23172456 0.45644335
0.33438981 0.23155020 0.45653145
0.44002807 0.23221562 0.45453659
0.54357915 0.23378936 0.45293080
0.64514348 0.23619462 0.45213768
0.74469706 0.23943922 0.45216403
0.84221589 0.24353102 0.45301668
0.02395638 0.33740497 0.44774521
0.12301784 0.33989761 0.45340931
0.22697450 0.34083182 0.45667608
0.33443280 0.34081866 0.45675736
0.44224322 0.34080221 0.45683627
0.55040576 0.34078249 0.45691280
0.65688285 0.34116078 0.45646184
0.75942803 0.34251125 0.45598662
0.85671846 0.34581114 0.45650160
0.02811249 0.44472866 0.45031483
0.12516648 0.44848471 0.45431019
0.22652004 0.45082861 0.45688939
0.33438380 0.45089880 0.45689400
0.44189949 0.45033144 0.45632665
0.54941517 0.44976409 0.45575929
0.65693086 0.44919673 0.45519193
0.76167084 0.44963075 0.45547198
0.86057334 0.45215742 0.45768590
0.03335177 0.55242160 0.45391298
0.12816244 0.55676622 0.45571034
0.22722028 0.55940444 0.45596081
0.33285996 0.55956600 0.45537017
0.44037565 0.55899864 0.45480281
0.54789134 0.55843129 0.45423546
0.65540703 0.55786393 0.45366810
0.76207619 0.55755254 0.45392432
0.86341562 0.55898462 0.45785759
0.04338656 0.65638920 0.45715838
0.13929690 0.66020644 0.45787209
0.23753543 0.66319415 0.45775626
0.33810216 0.66535232 0.45681089
0.44099708 0.66668096 0.45503599
0.54636751 0.66709849 0.45271162
0.65388319 0.66653113 0.45214427
0.76139888 0.66596378 0.45157691
0.86524528 0.66629273 0.45701667
0.06163590 0.75669846 0.46359864
0.15876003 0.75997861 0.46507608
0.25312747 0.76447773 0.46482860
0.34982310 0.76814733 0.46375157
0.44884694 0.77098738 0.46184501
0.55019897 0.77299790 0.45910892
0.65387920 0.77417888 0.45554328
0.75988762 0.77453033 0.45114811
0.86606233 0.77408176 0.45516313
0.06749981 0.86185702 0.46946255
0.16729556 0.86404028 0.47164581
0.26709130 0.86622354 0.47382907
0.36682094 0.86843619 0.47596915
0.46197368 0.87278767 0.47393093
0.55945462 0.87630961 0.47106318
0.65926296 0.87897267 0.46736508
0.76139837 0.88076562 0.46283633
0.86586288 0.88176169 0.45748065
0.01880692 0.01887439 0.53619815
0.11986718 0.02003289 0.53688547
0.21942514 0.02241379 0.53175780
0.31704600 0.02561254 0.52740357
0.41400507 0.02895986 0.52580746
0.51321593 0.03117879 0.52862894
0.61272584 0.03341176 0.53146310
0.71253478 0.03565878 0.53430995
0.81264276 0.03791986 0.53716947
0.02098603 0.12399612 0.54348134
0.12257349 0.12464406 0.55159262
0.22596886 0.12544196 0.55143338
0.32776942 0.12734510 0.54722101
0.42761398 0.13007143 0.54379575
0.52547852 0.13362877 0.54116442
0.62133905 0.13802495 0.53933384
0.72132981 0.14055526 0.54202016
0.82185914 0.14298973 0.54491341
0.02460477 0.22992435 0.54515659
0.12396573 0.23155506 0.55581434
0.22771754 0.23192515 0.56288495
0.33348125 0.23233136 0.56210813
0.43756396 0.23374189 0.55881907
0.53967177 0.23598092 0.55633078
0.63978068 0.23905630 0.55465008
0.73786668 0.24297586 0.55378378
0.83390575 0.24774745 0.55373869
0.02928035 0.33623445 0.54782797
0.12666245 0.33911356 0.55686488
0.22827210 0.34060217 0.56454088
0.33443532 0.34081521 0.56811100
0.44228769 0.34079788 0.56834154
0.54881401 0.34161512 0.56642494
0.65250686 0.34298573 0.56436190
0.75356360 0.34500236 0.56286410
0.85229214 0.34784853 0.56219584
0.03504082 0.44291419 0.55151792
0.13040254 0.44705874 0.55891137
0.23001189 0.44980766 0.56492401
0.33424682 0.45076182 0.56844685
0.44176250 0.45019446 0.56787950
0.54927819 0.44962711 0.56731214
0.65679388 0.44905975 0.56674479
0.76277404 0.44911191 0.56589671
0.86537367 0.45044666 0.56536010
0.04190906 0.54992053 0.55622131
0.13493663 0.55448386 0.56117557
0.23195146 0.55762651 0.56470916
0.33295356 0.55934850 0.56682209
0.44023867 0.55886166 0.56635566
0.54775436 0.55829431 0.56578831
0.65527005 0.55772695 0.56522095
0.76278573 0.55715959 0.56465360
0.86791332 0.55745664 0.56478250
0.04947379 0.65460698 0.55994847
0.14006443 0.66026490 0.56318339
0.23464235 0.66450215 0.56499765
0.33320753 0.66731874 0.56539124
0.43871484 0.66752886 0.56483183
0.54623052 0.66696151 0.56426447
0.65374621 0.66639415 0.56369712
0.76126190 0.66582679 0.56312976
0.86817724 0.66544124 0.56314334
0.05805113 0.75881252 0.56468825
0.14951279 0.76427238 0.56632895
0.24536868 0.76810535 0.56710404
0.34355277 0.77110879 0.56704959
0.44406505 0.77328268 0.56616561
0.54690553 0.77462705 0.56445209
0.65222238 0.77506135 0.56217328
0.75973807 0.77449399 0.56160593
0.86725375 0.77392664 0.56103857
0.06802694 0.86238415 0.57048037
0.16782268 0.86456741 0.57266363
0.26495455 0.86784198 0.57417058
0.35926755 0.87235683 0.57398447
0.45590874 0.87604215 0.57296883
0.55487700 0.87885681 0.57112252
0.65617209 0.88079215 0.56844531
0.75979631 0.88193210 0.56493950
0.86575068 0.88231315 0.56060609
0.01993962 0.02000963 0.62596880
0.11943469 0.02163112 0.62866902
0.21759660 0.02466177 0.62264672
0.31572847 0.02728681 0.62293331
0.41467813 0.02949500 0.62586663
0.51392682 0.03171724 0.62881264
0.61347455 0.03395353 0.63177133
0.71332133 0.03620387 0.63474270
0.81346714 0.03846826 0.63772675
0.02366157 0.12435081 0.63619819
0.12354582 0.12551997 0.64626128
0.22537207 0.12681246 0.64775675
0.32575828 0.12937165 0.64265172
0.42417633 0.13275885 0.63832873
0.52188857 0.13630860 0.63678978
0.62185765 0.13871828 0.63978219
0.72212578 0.14114202 0.64278728
0.82269294 0.14357980 0.64580506
0.02862644 0.22965150 0.63994614
0.12631895 0.23166813 0.65394387
0.22852397 0.23253445 0.66254300
0.33271502 0.23346751 0.66305478
0.43536510 0.23554038 0.65887503
0.53602812 0.23844659 0.65549098
0.63468008 0.24219397 0.65290943
0.73129697 0.24679037 0.65113721
0.83173656 0.24942596 0.65378078
0.03488177 0.33533079 0.64369446
0.13058251 0.33859784 0.65609663
0.23050201 0.34047578 0.66715498
0.33487964 0.34106473 0.67467892
0.44146881 0.34160725 0.67443608
0.54642231 0.34317893 0.67118961
0.64840420 0.34508401 0.66792621
0.74797249 0.34776680 0.66540583
0.84521258 0.35127912 0.66371500
0.04225172 0.44136789 0.64847381
0.13591919 0.44590240 0.65925781
0.23382549 0.44904268 0.66867808
0.33567377 0.45035382 0.67617007
0.44162552 0.45005748 0.67943235
0.54914121 0.44949012 0.67886499
0.65502660 0.44974580 0.67610985
0.75846598 0.45091716 0.67372113
0.85957716 0.45291807 0.67216195
0.05071666 0.54751698 0.65406415
0.14198413 0.55247481 0.66230505
0.23723887 0.55601198 0.66912528
0.33648088 0.55812848 0.67452484
0.44010169 0.55872468 0.67790851
0.54761738 0.55815732 0.67734116
0.65513306 0.55758997 0.67677380
0.76264875 0.55702261 0.67620645
0.86866485 0.55706315 0.67533202
0.05682624 0.65259415 0.65977036
0.14867768 0.65757937 0.66511111
0.24149550 0.66221113 0.67021200
0.33830059 0.66542223 0.67389222
0.43909296 0.66721266 0.67615179
0.54609354 0.66682452 0.67581732
0.65360923 0.66625717 0.67524997
0.76112492 0.66568981 0.67468261
0.86864061 0.66512246 0.67411526
0.06269015 0.75775271 0.66563427
0.15638384 0.76220301 0.66892978
0.24676475 0.76792937 0.67231133
0.34113292 0.77223506 0.67427222
0.43948836 0.77512009 0.67481244
0.54456971 0.77549172 0.67429349
0.65208540 0.77492437 0.67372613
0.75960108 0.77435701 0.67315878
0.86711677 0.77378965 0.67259142
0.06855406 0.86291128 0.67149818
0.16510262 0.86634574 0.67376106
0.25563940 0.87215545 0.67549908
0.35144084 0.87600415 0.67633555
0.44956864 0.87895637 0.67634064
0.55002311 0.88102324 0.67551466
0.65280683 0.88229932 0.67386022
0.75806994 0.88275816 0.67162763
0.86558851 0.88229552 0.67106316
0.02119632 0.02126920 0.71382989
0.11928668 0.02343856 0.71684970
0.21767609 0.02562196 0.71988218
0.31636453 0.02781942 0.72292735
0.41535202 0.03003092 0.72598520
0.51463854 0.03225648 0.72905573
0.61422411 0.03449609 0.73213895
0.71410871 0.03674974 0.73523484
0.81429236 0.03901745 0.73834341
0.02671447 0.12500239 0.72389588
0.12481767 0.12669591 0.73622331
0.22503961 0.12845118 0.73989646
0.32400995 0.13166830 0.73388551
0.42290184 0.13449055 0.73426299
0.52260971 0.13688950 0.73736724
0.62261663 0.13930250 0.74048418
0.72292258 0.14172955 0.74361380
0.82352758 0.14417065 0.74675610
0.03292111 0.22964484 0.73054171
0.12911396 0.23205443 0.74704772
0.22963345 0.23344689 0.75745118
0.33221626 0.23487463 0.75977954
0.43343219 0.23761172 0.75469584
0.53264890 0.24118699 0.75040276
0.63111530 0.24493898 0.74891910
0.73184260 0.24753942 0.75208245
0.83226369 0.24995309 0.75479859
0.03910803 0.33505755 0.73852759
0.13477871 0.33835107 0.75109592
0.23300609 0.34061981 0.76552909
0.33582120 0.34170642 0.77462463
0.44079863 0.34277615 0.77582935
0.54416682 0.34493620 0.77152725
0.64457485 0.34745560 0.76715477
0.74265469 0.35080455 0.76361182
0.83840634 0.35498303 0.76089841
0.04529089 0.44131378 0.74693952
0.14171712 0.44501631 0.75534087
0.23791839 0.44854942 0.76816124
0.33790866 0.45008360 0.77873884
0.44202445 0.45018146 0.78562743
0.54820118 0.45015023 0.78486193
0.65248031 0.45115822 0.78062110
0.75443124 0.45299574 0.77720981
0.85405397 0.45566280 0.77462806
0.05148945 0.54796271 0.75492426
0.14930495 0.55073908 0.75909878
0.24279959 0.55467076 0.76920565
0.34028151 0.55718178 0.77789184
0.44175070 0.55827213 0.78515738
0.54748039 0.55802034 0.78889401
0.65499608 0.55745298 0.78832665
0.76093089 0.55769306 0.78553092
0.86442471 0.55884870 0.78308082
0.05735336 0.65312128 0.76078817
0.15714911 0.65530454 0.76297143
0.24862197 0.66019343 0.77109060
0.34366697 0.66379904 0.77805746
0.44269924 0.66598399 0.78360366
0.54595656 0.66668754 0.78737018
0.65347225 0.66612018 0.78680282
0.76098794 0.66555283 0.78623546
0.86850362 0.66498547 0.78566811
0.06321728 0.75827984 0.76665208
0.16301302 0.76046310 0.76883534
0.25545696 0.76523519 0.77398817
0.34806504 0.76993539 0.77923569
0.44466039 0.77321493 0.78306254
0.54524302 0.77507381 0.78546873
0.65194841 0.77478738 0.78527899
0.75946410 0.77422003 0.78471163
0.86697979 0.77365267 0.78414427
0.06908119 0.86343841 0.77251599
0.16887694 0.86562166 0.77469925
0.26330456 0.86979603 0.77789834
0.35347572 0.87559083 0.78142652
0.44763087 0.87984550 0.78353076
0.54576997 0.88255843 0.78421100
0.65041464 0.88309282 0.78374521
0.75793371 0.88264872 0.78318124
0.86545211 0.88218007 0.78261660
0.02171972 0.02179263 0.81350975
0.11984792 0.02396531 0.81665408
0.21827515 0.02615203 0.81981110
0.31700143 0.02835280 0.82298079
0.41602674 0.03056763 0.82616316
0.51535110 0.03279650 0.82935822
0.61497450 0.03503942 0.83256596
0.71489694 0.03729640 0.83578637
0.81511841 0.03956742 0.83901947
0.02759357 0.12560035 0.82198701
0.12614311 0.12794642 0.82516506
0.22499170 0.13030653 0.82835580
0.32413932 0.13268070 0.83155922
0.42358599 0.13506892 0.83477532
0.52333169 0.13747118 0.83800410
0.62337644 0.13988750 0.84124556
0.72372023 0.14231787 0.84449971
0.82436305 0.14476229 0.84776653
0.03357356 0.23023813 0.83055395
0.13233365 0.23273974 0.83490855
0.23104675 0.23466318 0.84759978
0.33198565 0.23655335 0.85227379
0.43176590 0.23995655 0.84627287
0.53141843 0.24297593 0.84673967
0.63188453 0.24556564 0.85001486
0.73264966 0.24816940 0.85330273
0.83279082 0.25048022 0.85581641
0.03965969 0.33570597 0.83921057
0.13905194 0.33839882 0.84245608
0.23591931 0.34103811 0.85902171
0.33707012 0.34265505 0.86976518
0.44039947 0.34421913 0.87284527
0.54209924 0.34691495 0.86744264
0.64101883 0.35010051 0.86204758
0.73885898 0.35345552 0.85949706
0.83865473 0.35563878 0.86168032
0.04585198 0.44200387 0.84795688
0.14566557 0.44487011 0.85123611
0.24225812 0.44827577 0.86327968
0.34041582 0.45008565 0.87654771
0.44291293 0.45067525 0.88334481
0.54741159 0.45116475 0.88400679
0.65020543 0.45284205 0.88002690
0.75066947 0.45534728 0.87622284
0.84880410 0.45868084 0.87275841
0.05201658 0.54848984 0.85594207
0.15181233 0.55067310 0.85812533
0.24863364 0.55360287 0.86495027
0.34435484 0.55650777 0.87666992
0.44405914 0.55798784 0.88527681
0.54796753 0.55813740 0.89029159
0.65410906 0.55808364 0.89025990
0.75844646 0.55907971 0.88750720
0.86045438 0.56090406 0.88506934
0.05788049 0.65364840 0.86180598
0.15767624 0.65583166 0.86398924
0.25602176 0.65844905 0.86763346
0.34930615 0.66244865 0.87767720
0.44657480 0.66502459 0.88508045
0.54782928 0.66617841 0.89047492
0.65332294 0.66597088 0.89335744
0.76083965 0.66540454 0.89320177
0.86682640 0.66563204 0.89154502
0.06374440 0.75880697 0.86766990
0.16354015 0.76099023 0.86985315
0.26333590 0.76317349 0.87203641
0.35526983 0.76790838 0.87959591
0.45010236 0.77157971 0.88560513
0.54892152 0.77382973 0.88993195
0.65180176 0.77464073 0.89290746
0.75931837 0.77407429 0.89271324
0.86683494 0.77350782 0.89250383
0.06960832 0.86396553 0.87353381
0.16940406 0.86614879 0.87571526
0.26919969 0.86833193 0.87785174
0.36224577 0.87288685 0.88239161
0.45464175 0.87764629 0.88690422
0.55102131 0.88084937 0.89001283
0.65138901 0.88263960 0.89197299
0.75779098 0.88253138 0.89210920
0.86530999 0.88205744 0.89185905
