Buckswood_AutoGrade_Assistant/output/Buckswood_AutoGrade_buckswood_davinci_giveaway_ludwig_thumbnail_photoreal-ai_17.cube
TITLE "Buckswood AutoGrade 17"
LUT_3D_SIZE 5
DOMAIN_MIN 0.0 0.0 0.0
DOMAIN_MAX 1.0 1.0 1.0
0.02397826 0.02407502 0.02422016
0.21214506 0.02279145 0.02290395
0.38871702 0.02619214 0.02629795
0.54759348 0.03644865 0.03657067
0.71341524 0.04475142 0.04486954
0.02182926 0.21600364 0.02194937
0.21078353 0.21603444 0.01931871
0.39798309 0.21657908 0.02532127
0.56906380 0.22291650 0.04327119
0.73463341 0.23213842 0.05922889
0.04260065 0.40088481 0.04271517
0.21691420 0.40857530 0.03464546
0.40276124 0.41249885 0.02515377
0.58551435 0.41447213 0.04554908
0.75203023 0.42083308 0.07342513
0.06666765 0.58777957 0.06666765
0.24146103 0.59292168 0.07180975
0.41355656 0.60008001 0.06585107
0.59194195 0.60524625 0.05480451
0.76711466 0.60827837 0.08239050
0.08047858 0.77529448 0.08047858
0.25527196 0.78043659 0.08562069
0.43006534 0.78557870 0.09076279
0.60485872 0.79072080 0.09590490
0.77965210 0.79586291 0.10104701
0.02367851 0.02376976 0.22230086
0.21084343 0.02305837 0.22033331
0.38990939 0.02621185 0.21686841
0.56036977 0.03298119 0.21695415
0.71963990 0.04435454 0.22068310
0.02024342 0.21647431 0.22054671
0.21065507 0.21589485 0.21986673
0.40262061 0.21529956 0.21917505
0.58400577 0.21903606 0.22258216
0.74678830 0.22994592 0.23306319
0.02958469 0.40777516 0.22225715
0.21051878 0.41258132 0.21923945
0.40316127 0.41334023 0.21725993
0.59314407 0.41332565 0.22237904
0.76492328 0.41856611 0.23974943
0.06790916 0.58902108 0.24449464
0.23295724 0.59875038 0.24036144
0.40779133 0.60503357 0.23227669
0.59292919 0.60754600 0.22165873
0.77560609 0.60838212 0.24110869
0.08172010 0.77653600 0.25830558
0.25651347 0.78167810 0.26344768
0.43130685 0.78682021 0.26858979
0.60328701 0.79400330 0.26285912
0.78152651 0.79935920 0.25029045
0.02419942 0.02428857 0.40753436
0.20524226 0.02644334 0.40144423
0.37806698 0.03248185 0.39414240
0.54252564 0.04202667 0.39054977
0.71719758 0.04731546 0.39689388
0.02604352 0.21480404 0.41109025
0.21052533 0.21575414 0.42073873
0.40153229 0.21572018 0.41932033
0.58435819 0.21959730 0.41615271
0.75832603 0.22717291 0.41660551
0.03266028 0.40735829 0.41430042
0.20899243 0.41325636 0.42065470
0.40320283 0.41336518 0.42059925
0.59671958 0.41199967 0.41922154
0.77914516 0.41445857 0.42123102
0.04826983 0.59843814 0.42134996
0.21938058 0.60544574 0.42147722
0.40081426 0.60877528 0.41792643
0.59273183 0.60796765 0.41523378
0.78288566 0.60727402 0.41905101
0.08296161 0.77777751 0.43613257
0.25775499 0.78291961 0.44127468
0.42262794 0.79269130 0.43743266
0.59722063 0.79904422 0.42962006
0.78213623 0.80171893 0.41813130
0.02626364 0.02635649 0.56835872
0.20078668 0.03100595 0.56421046
0.37073623 0.03805701 0.55956654
0.54425546 0.04329943 0.56640559
0.71909415 0.04860255 0.57329947
0.03451810 0.21378429 0.58256534
0.21153772 0.21646394 0.60708084
0.39625633 0.21927089 0.60252418
0.57267994 0.22609953 0.59542783
0.74043428 0.23653899 0.59208753
0.04815203 0.40352108 0.59068228
0.21599855 0.41148615 0.61250961
0.40296871 0.41312592 0.62391447
0.59527095 0.41219155 0.62096680
0.77791164 0.41517244 0.61605522
0.06638653 0.59291921 0.60171435
0.22364091 0.60422681 0.61406198
0.39898095 0.60909390 0.61992671
0.59237335 0.60760917 0.61844199
0.78576576 0.60612445 0.61695726
0.08420312 0.77901902 0.61395957
0.23788077 0.79239669 0.61848435
0.40875012 0.79947402 0.61888377
0.58994239 0.80287329 0.61560513
0.78177800 0.80209243 0.61296950
0.02888929 0.02898744 0.72052168
0.19993637 0.03412279 0.72780086
0.37230290 0.03931883 0.73513486
0.54598889 0.04457558 0.74252369
0.72099433 0.04989302 0.74996733
0.04284115 0.21405802 0.74020292
0.21420375 0.21869427 0.76894705
0.39215700 0.22402674 0.76700243
0.56551244 0.23193291 0.76264222
0.74237511 0.23801260 0.77023163
0.05725121 0.40278533 0.76027169
0.22521724 0.41057224 0.78507797
0.40412299 0.41363346 0.81051965
0.58979967 0.41549646 0.80493990
0.76584077 0.42143100 0.79549436
0.07163369 0.59274562 0.77797563
0.23961350 0.59992738 0.78998173
0.40674289 0.60668516 0.81060282
0.59201488 0.60725070 0.82165019
0.78438903 0.60629240 0.81865752
0.08544463 0.78026053 0.79178657
0.25792164 0.78621875 0.79785934
0.41424605 0.79782982 0.81085710
0.58824949 0.80314185 0.81755583
0.78141952 0.80173396 0.81617771
