Buckswood_AutoGrade_Assistant/output/Buckswood_AutoGrade_buckswood_davinci_giveaway_ludwig_thumbnail_photoreal-ai_33.cube
TITLE "Buckswood AutoGrade 33"
LUT_3D_SIZE 5
DOMAIN_MIN 0.0 0.0 0.0
DOMAIN_MAX 1.0 1.0 1.0
0.01755592 0.01762708 0.01773381
0.22827721 0.01665050 0.01673130
0.42702790 0.02044285 0.02052292
0.61051698 0.03017090 0.03026712
0.80853340 0.03518956 0.03527396
0.01682543 0.23132682 0.01691305
0.22754228 0.23188712 0.01399764
0.43659760 0.23276744 0.02090043
0.63108608 0.23896921 0.03761255
0.82697809 0.24574275 0.04750778
0.03687338 0.43865096 0.03695553
0.23430890 0.44607003 0.03014478
0.44205680 0.44998805 0.02203647
0.64587482 0.45145333 0.04085054
0.84030163 0.45658033 0.05940172
0.05366348 0.64943139 0.05366348
0.25325497 0.65379791 0.05802999
0.45225925 0.65860328 0.05998031
0.65297091 0.66374706 0.05049775
0.85202945 0.66689746 0.07112955
0.06539130 0.85974852 0.06539130
0.26498280 0.86411504 0.06975782
0.46457429 0.86848155 0.07412434
0.66416578 0.87284807 0.07849086
0.86375728 0.87721459 0.08285738
0.01732839 0.01739515 0.23657473
0.22646197 0.01726763 0.23422518
0.42821009 0.02057141 0.23155129
0.62216365 0.02715129 0.23208666
0.81017463 0.03627933 0.23585399
0.01471303 0.23214166 0.23549699
0.22747105 0.23180631 0.23507378
0.44163753 0.23145786 0.23464105
0.64471590 0.23557252 0.23842922
0.83166236 0.24592493 0.24839062
0.02521276 0.44499461 0.23798523
0.22863344 0.44980817 0.23573094
0.44217345 0.45060541 0.23322094
0.65287457 0.45053567 0.23909313
0.84762648 0.45574640 0.25524686
0.05471773 0.65048564 0.25569910
0.24966694 0.65703732 0.25564722
0.44717480 0.66318875 0.24883665
0.65397818 0.66593840 0.23974076
0.85856140 0.66717577 0.25777056
0.06644555 0.86080277 0.26742693
0.26603705 0.86516929 0.27179345
0.46562854 0.86953581 0.27615997
0.66461990 0.87433773 0.27820702
0.86519927 0.87962826 0.26735063
0.01796942 0.01803535 0.44177380
0.22151268 0.02043252 0.43671881
0.41761884 0.02634548 0.43056860
0.61197795 0.03287077 0.43121427
0.81181922 0.03737223 0.43667159
0.02085540 0.23046275 0.44618167
0.22739875 0.23172456 0.45644335
0.44002807 0.23221562 0.45453659
0.64514348 0.23619462 0.45213768
0.84221589 0.24353102 0.45301668
0.02811249 0.44472866 0.45031483
0.22652004 0.45082861 0.45688939
0.44189949 0.45033144 0.45632665
0.65693086 0.44919673 0.45519193
0.86057334 0.45215742 0.45768590
0.04338656 0.65638920 0.45715838
0.23753543 0.66319415 0.45775626
0.44099708 0.66668096 0.45503599
0.65388319 0.66653113 0.45214427
0.86524528 0.66629273 0.45701667
0.06749981 0.86185702 0.46946255
0.26709130 0.86622354 0.47382907
0.46197368 0.87278767 0.47393093
0.65926296 0.87897267 0.46736508
0.86586288 0.88176169 0.45748065
0.01993962 0.02000963 0.62596880
0.21759660 0.02466177 0.62264672
0.41467813 0.02949500 0.62586663
0.61347455 0.03395353 0.63177133
0.81346714 0.03846826 0.63772675
0.02862644 0.22965150 0.63994614
0.22852397 0.23253445 0.66254300
0.43536510 0.23554038 0.65887503
0.63468008 0.24219397 0.65290943
0.83173656 0.24942596 0.65378078
0.04225172 0.44136789 0.64847381
0.23382549 0.44904268 0.66867808
0.44162552 0.45005748 0.67943235
0.65502660 0.44974580 0.67610985
0.85957716 0.45291807 0.67216195
0.05682624 0.65259415 0.65977036
0.24149550 0.66221113 0.67021200
0.43909296 0.66721266 0.67615179
0.65360923 0.66625717 0.67524997
0.86864061 0.66512246 0.67411526
0.06855406 0.86291128 0.67149818
0.25563940 0.87215545 0.67549908
0.44956864 0.87895637 0.67634064
0.65280683 0.88229932 0.67386022
0.86558851 0.88229552 0.67106316
0.02171972 0.02179263 0.81350975
0.21827515 0.02615203 0.81981110
0.41602674 0.03056763 0.82616316
0.61497450 0.03503942 0.83256596
0.81511841 0.03956742 0.83901947
0.03357356 0.23023813 0.83055395
0.23104675 0.23466318 0.84759978
0.43176590 0.23995655 0.84627287
0.63188453 0.24556564 0.85001486
0.83279082 0.25048022 0.85581641
0.04585198 0.44200387 0.84795688
0.24225812 0.44827577 0.86327968
0.44291293 0.45067525 0.88334481
0.65020543 0.45284205 0.88002690
0.84880410 0.45868084 0.87275841
0.05788049 0.65364840 0.86180598
0.25602176 0.65844905 0.86763346
0.44657480 0.66502459 0.88508045
0.65332294 0.66597088 0.89335744
0.86682640 0.66563204 0.89154502
0.06960832 0.86396553 0.87353381
0.26919969 0.86833193 0.87785174
0.45464175 0.87764629 0.88690422
0.65138901 0.88263960 0.89197299
0.86530999 0.88205744 0.89185905
